;Marlin(Repetier) G-CODE GENERATED BY FLATCAM v8.96 - www.flatcam.org - Version Date:    2019/08/23

;Name: placa_sensores-Edge_Cuts.gbr_cutout_cnc
;Type: G-code from Geometry
;Units: MM

;Created on Thursday, 03 October 2019 at 15:44

;TOOL DIAMETER: 2.4 mm

;Feedrate: 400.0 mm/min
;Feedrate_Z: 400.0 mm/min
;Feedrate rapids 400.0 mm/min

;Z_Cut: -1.9 mm
;Z_Move: 3.0 mm
;Z Toolchange: 12.7 mm
;X,Y Toolchange: 0.0000, 0.0000 mm
;Z Start: None mm
;Z End: 12.7 mm
;Steps per circle: 128
;Postprocessor Geometry: marlin

;X range:  -80.2918 ...  -13.4995  mm
;Y range:    2.3223 ...   67.2763  mm

;Spindle Speed: None RPM


G21
G90

G1 F400.00
G0 Z3.0000 F400.00

M3
G0 X-34.4414 Y2.9599 F400.00
G1 F400.00
G1 Z-1.9000 F400.00
G1 F400.00
G1 X-35.9041 Y2.4115 F400.00
G1 X-35.9690 Y2.3889 F400.00
G1 X-36.0145 Y2.3752 F400.00
G1 X-36.0554 Y2.3643 F400.00
G1 X-36.1017 Y2.3535 F400.00
G1 X-36.1693 Y2.3407 F400.00
G1 X-36.2112 Y2.3345 F400.00
G1 X-36.2468 Y2.3303 F400.00
G1 X-36.3175 Y2.3245 F400.00
G1 X-36.3533 Y2.3230 F400.00
G1 X-36.3957 Y2.3223 F400.00
G1 X-36.4644 Y2.3240 F400.00
G1 X-36.5329 Y2.3291 F400.00
G1 X-36.5802 Y2.3345 F400.00
G1 X-36.6221 Y2.3408 F400.00
G1 X-36.6688 Y2.3492 F400.00
G1 X-36.7245 Y2.3615 F400.00
G1 X-36.7818 Y2.3766 F400.00
G1 X-36.8272 Y2.3905 F400.00
G1 X-36.8873 Y2.4115 F400.00
G1 X-36.9315 Y2.4289 F400.00
G1 X-36.9837 Y2.4518 F400.00
G1 X-37.0370 Y2.4778 F400.00
G1 X-37.0788 Y2.5003 F400.00
G1 X-37.1336 Y2.5326 F400.00
G1 X-37.1736 Y2.5583 F400.00
G1 X-37.2222 Y2.5923 F400.00
G1 X-37.2675 Y2.6268 F400.00
G1 X-37.3041 Y2.6571 F400.00
G1 X-37.3516 Y2.6994 F400.00
G1 X-37.3858 Y2.7325 F400.00
G1 X-37.4268 Y2.7752 F400.00
G1 X-37.4645 Y2.8180 F400.00
G1 X-37.4945 Y2.8548 F400.00
G1 X-37.5328 Y2.9056 F400.00
G1 X-37.5599 Y2.9446 F400.00
G1 X-37.5906 Y2.9927 F400.00
G1 X-37.6204 Y3.0439 F400.00
G1 X-37.6427 Y3.0858 F400.00
G1 X-37.6704 Y3.1431 F400.00
G1 X-37.6893 Y3.1867 F400.00
G1 X-37.7100 Y3.2398 F400.00
G1 X-37.7293 Y3.2959 F400.00
G1 X-37.7430 Y3.3414 F400.00
G1 X-37.7589 Y3.4030 F400.00
G1 X-37.7690 Y3.4494 F400.00
G1 X-37.7775 Y3.4962 F400.00
G1 X-37.7843 Y3.5432 F400.00
G1 X-37.7910 Y3.6064 F400.00
G1 X-37.7942 Y3.6538 F400.00
G1 X-37.7959 Y3.7225 F400.00
G1 X-37.7959 Y22.5358 F400.00
G1 X-44.6455 Y22.5358 F400.00
G0 Z3.0000 F400.00
G0 X-49.0458 Y22.5358 F400.00
G1 F400.00
G1 Z-1.9000 F400.00
G1 F400.00
G1 X-55.9954 Y22.5358 F400.00
G1 X-55.9954 Y3.7225 F400.00
G1 X-55.9971 Y3.6538 F400.00
G1 X-56.0022 Y3.5853 F400.00
G1 X-56.0070 Y3.5432 F400.00
G1 X-56.0124 Y3.5055 F400.00
G1 X-56.0184 Y3.4702 F400.00
G1 X-56.0266 Y3.4287 F400.00
G1 X-56.0374 Y3.3823 F400.00
G1 X-56.0483 Y3.3414 F400.00
G1 X-56.0592 Y3.3049 F400.00
G1 X-56.0703 Y3.2709 F400.00
G1 X-56.0846 Y3.2310 F400.00
G1 X-56.1020 Y3.1867 F400.00
G1 X-56.1299 Y3.1239 F400.00
G1 X-56.1486 Y3.0858 F400.00
G1 X-56.1653 Y3.0542 F400.00
G1 X-56.1839 Y3.0210 F400.00
G1 X-56.2057 Y2.9846 F400.00
G1 X-56.2433 Y2.9271 F400.00
G1 X-56.2710 Y2.8884 F400.00
G1 X-56.2968 Y2.8548 F400.00
G1 X-56.3193 Y2.8270 F400.00
G1 X-56.3440 Y2.7981 F400.00
G1 X-56.3725 Y2.7666 F400.00
G1 X-56.4056 Y2.7324 F400.00
G1 X-56.4360 Y2.7029 F400.00
G1 X-56.4640 Y2.6772 F400.00
G1 X-56.4911 Y2.6538 F400.00
G1 X-56.5239 Y2.6268 F400.00
G1 X-56.5787 Y2.5854 F400.00
G1 X-56.6178 Y2.5583 F400.00
G1 X-56.6534 Y2.5353 F400.00
G1 X-56.6839 Y2.5167 F400.00
G1 X-56.7170 Y2.4978 F400.00
G1 X-56.7543 Y2.4778 F400.00
G1 X-56.7970 Y2.4568 F400.00
G1 X-56.8356 Y2.4392 F400.00
G1 X-56.8686 Y2.4253 F400.00
G1 X-56.9350 Y2.4003 F400.00
G1 X-56.9689 Y2.3889 F400.00
G1 X-57.0095 Y2.3766 F400.00
G1 X-57.0760 Y2.3593 F400.00
G1 X-57.1225 Y2.3492 F400.00
G1 X-57.1642 Y2.3416 F400.00
G1 X-57.1996 Y2.3361 F400.00
G1 X-57.2373 Y2.3313 F400.00
G1 X-57.2795 Y2.3271 F400.00
G1 X-57.3269 Y2.3240 F400.00
G1 X-57.3957 Y2.3223 F400.00
G1 X-57.4381 Y2.3230 F400.00
G1 X-57.4738 Y2.3245 F400.00
G1 X-57.5118 Y2.3272 F400.00
G1 X-57.5539 Y2.3313 F400.00
G1 X-57.6221 Y2.3407 F400.00
G1 X-57.6689 Y2.3492 F400.00
G1 X-57.7103 Y2.3581 F400.00
G1 X-57.7472 Y2.3672 F400.00
G1 X-57.7818 Y2.3766 F400.00
G1 X-57.8223 Y2.3889 F400.00
G1 X-57.8674 Y2.4042 F400.00
G1 X-59.3784 Y2.9710 F400.00
G1 X-59.4134 Y2.9855 F400.00
G1 X-60.8476 Y3.6046 F400.00
G1 X-60.9097 Y3.6332 F400.00
G1 X-62.3119 Y4.3217 F400.00
G1 X-62.3457 Y4.3389 F400.00
G1 X-63.7661 Y5.1244 F400.00
G1 X-63.7985 Y5.1439 F400.00
G1 X-65.1270 Y5.9657 F400.00
G1 X-65.1843 Y6.0031 F400.00
G1 X-66.4710 Y6.8888 F400.00
G1 X-66.5264 Y6.9289 F400.00
G1 X-67.7684 Y7.8764 F400.00
G1 X-67.7982 Y7.8998 F400.00
G1 X-69.0391 Y8.9461 F400.00
G1 X-69.0672 Y8.9714 F400.00
G1 X-70.2331 Y10.0565 F400.00
G1 X-70.2599 Y10.0832 F400.00
G1 X-71.3503 Y11.2018 F400.00
G1 X-71.3968 Y11.2519 F400.00
G1 X-72.4314 Y12.4224 F400.00
G1 X-72.4754 Y12.4747 F400.00
G1 X-73.4704 Y13.7183 F400.00
G1 X-73.4930 Y13.7486 F400.00
G1 X-74.4086 Y15.0144 F400.00
G1 X-74.4473 Y15.0707 F400.00
G1 X-75.2999 Y16.3797 F400.00
G1 X-75.3358 Y16.4378 F400.00
G1 X-76.1236 Y17.7868 F400.00
G1 X-76.1422 Y17.8198 F400.00
G1 X-76.8914 Y19.2597 F400.00
G1 X-76.9077 Y19.2939 F400.00
G1 X-77.5602 Y20.7132 F400.00
G1 X-77.5872 Y20.7760 F400.00
G1 X-78.1697 Y22.2255 F400.00
G1 X-78.1833 Y22.2608 F400.00
G1 X-78.7143 Y23.7947 F400.00
G1 X-78.7254 Y23.8309 F400.00
G1 X-79.1638 Y25.3302 F400.00
G1 X-79.1814 Y25.3963 F400.00
G1 X-79.5461 Y26.9153 F400.00
G1 X-79.5544 Y26.9522 F400.00
G1 X-79.8505 Y28.5171 F400.00
G1 X-79.8570 Y28.5544 F400.00
G1 X-80.0803 Y30.1621 F400.00
G1 X-80.0842 Y30.1998 F400.00
G1 X-80.2233 Y31.7557 F400.00
G1 X-80.2277 Y31.8239 F400.00
G1 X-80.2907 Y33.3848 F400.00
G1 X-80.2918 Y33.4380 F400.00
G1 X-80.2785 Y35.0153 F400.00
G1 X-80.2776 Y35.0531 F400.00
G1 X-80.1868 Y36.6432 F400.00
G1 X-80.1841 Y36.6809 F400.00
G1 X-80.0157 Y38.2647 F400.00
G1 X-80.0112 Y38.3022 F400.00
G1 X-79.7657 Y39.8759 F400.00
G1 X-79.7594 Y39.9132 F400.00
G1 X-79.4309 Y41.5028 F400.00
G1 X-79.4220 Y41.5396 F400.00
G1 X-79.0236 Y43.0816 F400.00
G1 X-79.0128 Y43.1179 F400.00
G1 X-78.5397 Y44.6386 F400.00
G1 X-78.5272 Y44.6744 F400.00
G1 X-77.9804 Y46.1702 F400.00
G1 X-77.9662 Y46.2053 F400.00
G1 X-77.3470 Y47.6727 F400.00
G1 X-77.3311 Y47.7070 F400.00
G1 X-76.6410 Y49.1424 F400.00
G1 X-76.6235 Y49.1760 F400.00
G1 X-75.8642 Y50.5760 F400.00
G1 X-75.8450 Y50.6086 F400.00
G1 X-75.0183 Y51.9699 F400.00
G1 X-74.9976 Y52.0016 F400.00
G1 X-74.1054 Y53.3209 F400.00
G1 X-74.0832 Y53.3515 F400.00
G1 X-73.1277 Y54.6258 F400.00
G1 X-73.1040 Y54.6552 F400.00
G1 X-72.0875 Y55.8813 F400.00
G1 X-72.0623 Y55.9096 F400.00
G1 X-71.0080 Y57.0623 F400.00
G1 X-70.9607 Y57.1116 F400.00
G1 X-69.8295 Y58.2328 F400.00
G1 X-69.8017 Y58.2585 F400.00
G1 X-68.6171 Y59.3231 F400.00
G1 X-68.5881 Y59.3474 F400.00
G1 X-67.3530 Y60.3529 F400.00
G1 X-67.3229 Y60.3758 F400.00
G1 X-66.0401 Y61.3198 F400.00
G1 X-66.0089 Y61.3412 F400.00
G1 X-64.6816 Y62.2215 F400.00
G1 X-64.6494 Y62.2414 F400.00
G1 X-63.2808 Y63.0558 F400.00
G1 X-63.2476 Y63.0741 F400.00
G1 X-61.8408 Y63.8208 F400.00
G1 X-61.8068 Y63.8374 F400.00
G1 X-60.3931 Y64.5019 F400.00
G1 X-60.3305 Y64.5295 F400.00
G1 X-58.8576 Y65.1355 F400.00
G1 X-58.8222 Y65.1487 F400.00
G1 X-57.3215 Y65.6821 F400.00
G1 X-57.2854 Y65.6936 F400.00
G1 X-55.7605 Y66.1531 F400.00
G1 X-55.7239 Y66.1628 F400.00
G1 X-54.2081 Y66.5404 F400.00
G1 X-54.1413 Y66.5553 F400.00
G1 X-52.5789 Y66.8640 F400.00
G1 X-52.5415 Y66.8700 F400.00
G1 X-50.9961 Y67.0980 F400.00
G1 X-50.9283 Y67.1063 F400.00
G1 X-49.3584 Y67.2600 F400.00
G1 X-49.3054 Y67.2636 F400.00
G1 X-49.0458 Y67.2763 F400.00
G0 Z3.0000 F400.00
G0 X-44.6455 Y67.2714 F400.00
G1 F400.00
G1 Z-1.9000 F400.00
G1 F400.00
G1 X-44.4708 Y67.2628 F400.00
G1 X-44.4178 Y67.2586 F400.00
G1 X-42.8631 Y67.1063 F400.00
G1 X-42.7952 Y67.0980 F400.00
G1 X-41.2498 Y66.8700 F400.00
G1 X-41.2124 Y66.8640 F400.00
G1 X-39.6201 Y66.5490 F400.00
G1 X-39.5833 Y66.5404 F400.00
G1 X-38.0379 Y66.1551 F400.00
G1 X-38.0015 Y66.1447 F400.00
G1 X-36.5059 Y65.6936 F400.00
G1 X-36.4410 Y65.6722 F400.00
G1 X-34.9692 Y65.1487 F400.00
G1 X-34.9053 Y65.1242 F400.00
G1 X-33.4608 Y64.5295 F400.00
G1 X-33.4260 Y64.5146 F400.00
G1 X-31.9845 Y63.8374 F400.00
G1 X-31.9505 Y63.8208 F400.00
G1 X-30.5170 Y63.0594 F400.00
G1 X-30.4842 Y63.0405 F400.00
G1 X-29.1419 Y62.2414 F400.00
G1 X-29.0841 Y62.2050 F400.00
G1 X-27.7572 Y61.3240 F400.00
G1 X-27.7264 Y61.3020 F400.00
G1 X-26.4685 Y60.3758 F400.00
G1 X-26.4144 Y60.3339 F400.00
G1 X-25.2032 Y59.3474 F400.00
G1 X-25.1513 Y59.3030 F400.00
G1 X-23.9896 Y58.2585 F400.00
G1 X-23.9619 Y58.2328 F400.00
G1 X-22.8306 Y57.1116 F400.00
G1 X-22.8042 Y57.0846 F400.00
G1 X-21.7087 Y55.8868 F400.00
G1 X-21.6841 Y55.8581 F400.00
G1 X-20.6873 Y54.6552 F400.00
G1 X-20.6450 Y54.6016 F400.00
G1 X-19.7081 Y53.3515 F400.00
G1 X-19.6685 Y53.2959 F400.00
G1 X-18.7937 Y52.0016 F400.00
G1 X-18.7730 Y51.9699 F400.00
G1 X-17.9463 Y50.6086 F400.00
G1 X-17.9271 Y50.5760 F400.00
G1 X-17.1536 Y49.1490 F400.00
G1 X-17.1367 Y49.1151 F400.00
G1 X-16.4473 Y47.6794 F400.00
G1 X-16.4321 Y47.6447 F400.00
G1 X-15.8136 Y46.1770 F400.00
G1 X-15.8001 Y46.1417 F400.00
G1 X-15.2641 Y44.6744 F400.00
G1 X-15.2422 Y44.6096 F400.00
G1 X-14.7785 Y43.1179 F400.00
G1 X-14.7598 Y43.0521 F400.00
G1 X-14.3694 Y41.5396 F400.00
G1 X-14.3604 Y41.5028 F400.00
G1 X-14.0378 Y39.9431 F400.00
G1 X-14.0256 Y39.8759 F400.00
G1 X-13.7845 Y38.3324 F400.00
G1 X-13.7792 Y38.2950 F400.00
G1 X-13.6101 Y36.7113 F400.00
G1 X-13.6066 Y36.6736 F400.00
G1 X-13.5137 Y35.0531 F400.00
G1 X-13.5128 Y35.0153 F400.00
G1 X-13.4995 Y33.4532 F400.00
G1 X-13.5006 Y33.3848 F400.00
G1 X-13.5636 Y31.8239 F400.00
G1 X-13.5680 Y31.7557 F400.00
G1 X-13.7071 Y30.1998 F400.00
G1 X-13.7111 Y30.1621 F400.00
G1 X-13.9297 Y28.5846 F400.00
G1 X-13.9355 Y28.5472 F400.00
G1 X-14.2309 Y26.9821 F400.00
G1 X-14.2385 Y26.9450 F400.00
G1 X-14.6174 Y25.3667 F400.00
G1 X-14.6275 Y25.3302 F400.00
G1 X-15.0748 Y23.8017 F400.00
G1 X-15.0867 Y23.7657 F400.00
G1 X-15.5977 Y22.2895 F400.00
G1 X-15.6216 Y22.2255 F400.00
G1 X-16.2041 Y20.7760 F400.00
G1 X-16.2311 Y20.7132 F400.00
G1 X-16.8836 Y19.2939 F400.00
G1 X-16.8999 Y19.2597 F400.00
G1 X-17.6347 Y17.8467 F400.00
G1 X-17.6527 Y17.8134 F400.00
G1 X-18.4555 Y16.4378 F400.00
G1 X-18.4751 Y16.4054 F400.00
G1 X-19.3610 Y15.0454 F400.00
G1 X-19.3828 Y15.0144 F400.00
G1 X-20.3165 Y13.7241 F400.00
G1 X-20.3397 Y13.6943 F400.00
G1 X-21.3159 Y12.4747 F400.00
G1 X-21.3599 Y12.4224 F400.00
G1 X-22.3945 Y11.2519 F400.00
G1 X-22.4410 Y11.2018 F400.00
G1 X-23.5315 Y10.0832 F400.00
G1 X-23.5583 Y10.0565 F400.00
G1 X-24.7241 Y8.9714 F400.00
G1 X-24.7522 Y8.9461 F400.00
G1 X-25.9931 Y7.8998 F400.00
G1 X-26.0229 Y7.8764 F400.00
G1 X-27.2894 Y6.9107 F400.00
G1 X-27.3203 Y6.8888 F400.00
G1 X-28.6324 Y5.9861 F400.00
G1 X-28.6643 Y5.9657 F400.00
G1 X-29.9928 Y5.1439 F400.00
G1 X-30.0518 Y5.1093 F400.00
G1 X-31.4457 Y4.3389 F400.00
G1 X-31.4794 Y4.3217 F400.00
G1 X-32.8817 Y3.6332 F400.00
G1 X-32.9437 Y3.6046 F400.00
G1 X-34.3780 Y2.9855 F400.00
G1 X-34.4414 Y2.9599 F400.00
G0 Z3.0000 F400.00
M5
G0 Z3.0000 F400.00
G0 Z12.70 F400.00
G0 X0.0 Y0.0 F400.00

M02