;Marlin(Repetier) G-CODE GENERATED BY FLATCAM v8.96 - www.flatcam.org - Version Date:    2019/08/23

;Name: placa_sensores-B_Cu.gbr_iso_cnc
;Type: G-code from Geometry
;Units: MM

;Created on Thursday, 03 October 2019 at 15:38

;TOOL DIAMETER: 0.1 mm

;Feedrate: 400.0 mm/min
;Feedrate_Z: 400.0 mm/min
;Feedrate rapids 400.0 mm/min

;Z_Cut: -0.3 mm
;Z_Move: 3.0 mm
;Z Toolchange: 12.7 mm
;X,Y Toolchange: 0.0000, 0.0000 mm
;Z Start: None mm
;Z End: 12.7 mm
;Steps per circle: 128
;Postprocessor Geometry: marlin

;X range:  -75.0358 ...  -16.5028  mm
;Y range:    6.1710 ...   64.3465  mm

;Spindle Speed: 400 RPM


G21
G90

G1 F400.00
G0 Z3.0000 F400.00

M3 S400
G0 X-28.1356 Y13.6718 F400.00
G1 F400.00
G1 Z-0.3000 F400.00
G1 F400.00
G1 X-28.1337 Y13.5951 F400.00
G1 X-28.1281 Y13.5193 F400.00
G1 X-28.1188 Y13.4438 F400.00
G1 X-28.1058 Y13.3688 F400.00
G1 X-28.0891 Y13.2946 F400.00
G1 X-28.0689 Y13.2213 F400.00
G1 X-28.0450 Y13.1490 F400.00
G1 X-28.0176 Y13.0780 F400.00
G1 X-27.9868 Y13.0085 F400.00
G1 X-27.9526 Y12.9405 F400.00
G1 X-27.9151 Y12.8743 F400.00
G1 X-27.8744 Y12.8101 F400.00
G1 X-27.8306 Y12.7479 F400.00
G1 X-27.7838 Y12.6879 F400.00
G1 X-27.7341 Y12.6303 F400.00
G1 X-27.6816 Y12.5752 F400.00
G1 X-27.6265 Y12.5227 F400.00
G1 X-27.5689 Y12.4730 F400.00
G1 X-27.5089 Y12.4262 F400.00
G1 X-27.4467 Y12.3824 F400.00
G1 X-27.3825 Y12.3417 F400.00
G1 X-27.3163 Y12.3042 F400.00
G1 X-27.2483 Y12.2700 F400.00
G1 X-27.1788 Y12.2392 F400.00
G1 X-27.1078 Y12.2118 F400.00
G1 X-27.0355 Y12.1879 F400.00
G1 X-26.9622 Y12.1677 F400.00
G1 X-26.8880 Y12.1510 F400.00
G1 X-26.8130 Y12.1380 F400.00
G1 X-26.7375 Y12.1287 F400.00
G1 X-26.6617 Y12.1231 F400.00
G1 X-26.5856 Y12.1212 F400.00
G1 X-26.5095 Y12.1231 F400.00
G1 X-26.4337 Y12.1287 F400.00
G1 X-26.3582 Y12.1380 F400.00
G1 X-26.2832 Y12.1510 F400.00
G1 X-26.2090 Y12.1677 F400.00
G1 X-26.1357 Y12.1879 F400.00
G1 X-26.0634 Y12.2118 F400.00
G1 X-25.9924 Y12.2392 F400.00
G1 X-25.9229 Y12.2700 F400.00
G1 X-25.8549 Y12.3042 F400.00
G1 X-25.7887 Y12.3417 F400.00
G1 X-25.7245 Y12.3824 F400.00
G1 X-25.6623 Y12.4262 F400.00
G1 X-25.6023 Y12.4730 F400.00
G1 X-25.5447 Y12.5227 F400.00
G1 X-25.4896 Y12.5752 F400.00
G1 X-25.4371 Y12.6303 F400.00
G1 X-25.3874 Y12.6879 F400.00
G1 X-25.3406 Y12.7479 F400.00
G1 X-25.2968 Y12.8101 F400.00
G1 X-25.2561 Y12.8743 F400.00
G1 X-25.2186 Y12.9405 F400.00
G1 X-25.1844 Y13.0085 F400.00
G1 X-25.1536 Y13.0780 F400.00
G1 X-25.1262 Y13.1490 F400.00
G1 X-25.1023 Y13.2213 F400.00
G1 X-25.0821 Y13.2946 F400.00
G1 X-25.0654 Y13.3688 F400.00
G1 X-25.0524 Y13.4438 F400.00
G1 X-25.0431 Y13.5193 F400.00
G1 X-25.0375 Y13.5951 F400.00
G1 X-25.0356 Y13.6712 F400.00
G1 X-25.0375 Y13.7473 F400.00
G1 X-25.0431 Y13.8231 F400.00
G1 X-25.0524 Y13.8986 F400.00
G1 X-25.0654 Y13.9736 F400.00
G1 X-25.0821 Y14.0478 F400.00
G1 X-25.1023 Y14.1211 F400.00
G1 X-25.1262 Y14.1934 F400.00
G1 X-25.1536 Y14.2644 F400.00
G1 X-25.1844 Y14.3339 F400.00
G1 X-25.2186 Y14.4019 F400.00
G1 X-25.2561 Y14.4681 F400.00
G1 X-25.2968 Y14.5323 F400.00
G1 X-25.3406 Y14.5945 F400.00
G1 X-25.3874 Y14.6545 F400.00
G1 X-25.4371 Y14.7121 F400.00
G1 X-25.4896 Y14.7672 F400.00
G1 X-25.5447 Y14.8197 F400.00
G1 X-25.6023 Y14.8694 F400.00
G1 X-25.6623 Y14.9162 F400.00
G1 X-25.7245 Y14.9600 F400.00
G1 X-25.7887 Y15.0007 F400.00
G1 X-25.8549 Y15.0382 F400.00
G1 X-25.9229 Y15.0724 F400.00
G1 X-25.9924 Y15.1032 F400.00
G1 X-26.0634 Y15.1306 F400.00
G1 X-26.1357 Y15.1545 F400.00
G1 X-26.2090 Y15.1747 F400.00
G1 X-26.2832 Y15.1914 F400.00
G1 X-26.3582 Y15.2044 F400.00
G1 X-26.4337 Y15.2137 F400.00
G1 X-26.5095 Y15.2193 F400.00
G1 X-26.5856 Y15.2212 F400.00
G1 X-26.6617 Y15.2193 F400.00
G1 X-26.7375 Y15.2137 F400.00
G1 X-26.8130 Y15.2044 F400.00
G1 X-26.8880 Y15.1914 F400.00
G1 X-26.9622 Y15.1747 F400.00
G1 X-27.0355 Y15.1545 F400.00
G1 X-27.1078 Y15.1306 F400.00
G1 X-27.1788 Y15.1032 F400.00
G1 X-27.2483 Y15.0724 F400.00
G1 X-27.3163 Y15.0382 F400.00
G1 X-27.3825 Y15.0007 F400.00
G1 X-27.4467 Y14.9600 F400.00
G1 X-27.5089 Y14.9162 F400.00
G1 X-27.5689 Y14.8694 F400.00
G1 X-27.6265 Y14.8197 F400.00
G1 X-27.6816 Y14.7672 F400.00
G1 X-27.7341 Y14.7121 F400.00
G1 X-27.7838 Y14.6545 F400.00
G1 X-27.8306 Y14.5945 F400.00
G1 X-27.8744 Y14.5323 F400.00
G1 X-27.9151 Y14.4681 F400.00
G1 X-27.9526 Y14.4019 F400.00
G1 X-27.9868 Y14.3339 F400.00
G1 X-28.0176 Y14.2644 F400.00
G1 X-28.0450 Y14.1934 F400.00
G1 X-28.0689 Y14.1211 F400.00
G1 X-28.0891 Y14.0478 F400.00
G1 X-28.1058 Y13.9736 F400.00
G1 X-28.1188 Y13.8986 F400.00
G1 X-28.1281 Y13.8231 F400.00
G1 X-28.1337 Y13.7473 F400.00
G1 X-28.1356 Y13.6718 F400.00
G0 Z3.0000 F400.00
G0 X-30.3047 Y32.8015 F400.00
G1 F400.00
G1 Z-0.3000 F400.00
G1 F400.00
G1 X-30.3750 Y33.1553 F400.00
G1 X-30.5130 Y33.4885 F400.00
G1 X-30.7134 Y33.7884 F400.00
G1 X-30.9684 Y34.0434 F400.00
G1 X-31.2683 Y34.2438 F400.00
G1 X-31.6015 Y34.3818 F400.00
G1 X-31.9553 Y34.4521 F400.00
G1 X-32.3159 Y34.4521 F400.00
G1 X-32.6697 Y34.3818 F400.00
G1 X-33.0029 Y34.2438 F400.00
G1 X-33.3028 Y34.0434 F400.00
G1 X-33.5578 Y33.7884 F400.00
G1 X-33.7582 Y33.4885 F400.00
G1 X-33.8962 Y33.1553 F400.00
G1 X-33.9665 Y32.8015 F400.00
G1 X-33.9665 Y32.4409 F400.00
G1 X-33.8962 Y32.0871 F400.00
G1 X-33.7582 Y31.7539 F400.00
G1 X-33.5629 Y31.4612 F400.00
G1 X-33.5518 Y31.4390 F400.00
G1 X-33.5439 Y31.4154 F400.00
G1 X-33.5401 Y31.3960 F400.00
G1 X-33.5383 Y31.3712 F400.00
G1 X-33.5401 Y31.3464 F400.00
G1 X-33.5439 Y31.3270 F400.00
G1 X-33.5518 Y31.3034 F400.00
G1 X-33.5629 Y31.2812 F400.00
G1 X-33.7582 Y30.9885 F400.00
G1 X-33.8962 Y30.6553 F400.00
G1 X-33.9665 Y30.3015 F400.00
G1 X-33.9665 Y29.9409 F400.00
G1 X-33.8962 Y29.5871 F400.00
G1 X-33.7582 Y29.2539 F400.00
G1 X-33.5629 Y28.9612 F400.00
G1 X-33.5518 Y28.9390 F400.00
G1 X-33.5439 Y28.9154 F400.00
G1 X-33.5401 Y28.8960 F400.00
G1 X-33.5383 Y28.8712 F400.00
G1 X-33.5401 Y28.8464 F400.00
G1 X-33.5439 Y28.8270 F400.00
G1 X-33.5518 Y28.8034 F400.00
G1 X-33.5629 Y28.7812 F400.00
G1 X-33.7582 Y28.4885 F400.00
G1 X-33.8962 Y28.1553 F400.00
G1 X-33.9665 Y27.8015 F400.00
G1 X-33.9665 Y27.4409 F400.00
G1 X-33.8962 Y27.0871 F400.00
G1 X-33.7582 Y26.7539 F400.00
G1 X-33.5629 Y26.4612 F400.00
G1 X-33.5518 Y26.4390 F400.00
G1 X-33.5439 Y26.4154 F400.00
G1 X-33.5401 Y26.3960 F400.00
G1 X-33.5383 Y26.3712 F400.00
G1 X-33.5401 Y26.3464 F400.00
G1 X-33.5439 Y26.3270 F400.00
G1 X-33.5518 Y26.3034 F400.00
G1 X-33.5629 Y26.2812 F400.00
G1 X-33.7582 Y25.9885 F400.00
G1 X-33.8962 Y25.6553 F400.00
G1 X-33.9665 Y25.3015 F400.00
G1 X-33.9665 Y24.9409 F400.00
G1 X-33.8962 Y24.5871 F400.00
G1 X-33.7582 Y24.2539 F400.00
G1 X-33.5629 Y23.9612 F400.00
G1 X-33.5518 Y23.9390 F400.00
G1 X-33.5439 Y23.9154 F400.00
G1 X-33.5401 Y23.8960 F400.00
G1 X-33.5383 Y23.8712 F400.00
G1 X-33.5401 Y23.8464 F400.00
G1 X-33.5439 Y23.8270 F400.00
G1 X-33.5518 Y23.8034 F400.00
G1 X-33.5629 Y23.7812 F400.00
G1 X-33.7582 Y23.4885 F400.00
G1 X-33.8962 Y23.1553 F400.00
G1 X-33.9665 Y22.8015 F400.00
G1 X-33.9665 Y22.4409 F400.00
G1 X-33.8962 Y22.0871 F400.00
G1 X-33.7582 Y21.7539 F400.00
G1 X-33.5629 Y21.4612 F400.00
G1 X-33.5518 Y21.4390 F400.00
G1 X-33.5439 Y21.4154 F400.00
G1 X-33.5401 Y21.3960 F400.00
G1 X-33.5383 Y21.3712 F400.00
G1 X-33.5401 Y21.3464 F400.00
G1 X-33.5439 Y21.3270 F400.00
G1 X-33.5518 Y21.3034 F400.00
G1 X-33.5629 Y21.2812 F400.00
G1 X-33.7582 Y20.9885 F400.00
G1 X-33.8962 Y20.6553 F400.00
G1 X-33.9665 Y20.3015 F400.00
G1 X-33.9665 Y19.9409 F400.00
G1 X-33.8962 Y19.5871 F400.00
G1 X-33.7582 Y19.2539 F400.00
G1 X-33.5578 Y18.9540 F400.00
G1 X-33.3028 Y18.6990 F400.00
G1 X-33.0029 Y18.4986 F400.00
G1 X-32.6697 Y18.3606 F400.00
G1 X-32.3159 Y18.2903 F400.00
G1 X-31.9553 Y18.2903 F400.00
G1 X-31.6015 Y18.3606 F400.00
G1 X-31.2683 Y18.4986 F400.00
G1 X-30.9684 Y18.6990 F400.00
G1 X-30.7134 Y18.9540 F400.00
G1 X-30.5130 Y19.2539 F400.00
G1 X-30.3750 Y19.5871 F400.00
G1 X-30.3047 Y19.9409 F400.00
G1 X-30.3047 Y20.3015 F400.00
G1 X-30.3750 Y20.6553 F400.00
G1 X-30.5130 Y20.9885 F400.00
G1 X-30.7083 Y21.2812 F400.00
G1 X-30.7194 Y21.3034 F400.00
G1 X-30.7273 Y21.3270 F400.00
G1 X-30.7311 Y21.3464 F400.00
G1 X-30.7329 Y21.3712 F400.00
G1 X-30.7311 Y21.3960 F400.00
G1 X-30.7273 Y21.4154 F400.00
G1 X-30.7194 Y21.4390 F400.00
G1 X-30.7083 Y21.4612 F400.00
G1 X-30.5130 Y21.7539 F400.00
G1 X-30.3750 Y22.0871 F400.00
G1 X-30.3047 Y22.4409 F400.00
G1 X-30.3047 Y22.8015 F400.00
G1 X-30.3750 Y23.1553 F400.00
G1 X-30.5130 Y23.4885 F400.00
G1 X-30.7083 Y23.7812 F400.00
G1 X-30.7194 Y23.8034 F400.00
G1 X-30.7273 Y23.8270 F400.00
G1 X-30.7311 Y23.8464 F400.00
G1 X-30.7329 Y23.8712 F400.00
G1 X-30.7311 Y23.8960 F400.00
G1 X-30.7273 Y23.9154 F400.00
G1 X-30.7194 Y23.9390 F400.00
G1 X-30.7083 Y23.9612 F400.00
G1 X-30.5130 Y24.2539 F400.00
G1 X-30.3750 Y24.5871 F400.00
G1 X-30.3047 Y24.9409 F400.00
G1 X-30.3047 Y25.3015 F400.00
G1 X-30.3750 Y25.6553 F400.00
G1 X-30.5130 Y25.9885 F400.00
G1 X-30.7083 Y26.2812 F400.00
G1 X-30.7194 Y26.3034 F400.00
G1 X-30.7273 Y26.3270 F400.00
G1 X-30.7311 Y26.3464 F400.00
G1 X-30.7329 Y26.3712 F400.00
G1 X-30.7311 Y26.3960 F400.00
G1 X-30.7273 Y26.4154 F400.00
G1 X-30.7194 Y26.4390 F400.00
G1 X-30.7083 Y26.4612 F400.00
G1 X-30.5130 Y26.7539 F400.00
G1 X-30.3750 Y27.0871 F400.00
G1 X-30.3047 Y27.4409 F400.00
G1 X-30.3047 Y27.8015 F400.00
G1 X-30.3750 Y28.1553 F400.00
G1 X-30.5130 Y28.4885 F400.00
G1 X-30.7083 Y28.7812 F400.00
G1 X-30.7194 Y28.8034 F400.00
G1 X-30.7273 Y28.8270 F400.00
G1 X-30.7311 Y28.8464 F400.00
G1 X-30.7329 Y28.8712 F400.00
G1 X-30.7311 Y28.8960 F400.00
G1 X-30.7273 Y28.9154 F400.00
G1 X-30.7194 Y28.9390 F400.00
G1 X-30.7083 Y28.9612 F400.00
G1 X-30.5130 Y29.2539 F400.00
G1 X-30.3750 Y29.5871 F400.00
G1 X-30.3047 Y29.9409 F400.00
G1 X-30.3047 Y30.3015 F400.00
G1 X-30.3750 Y30.6553 F400.00
G1 X-30.5130 Y30.9885 F400.00
G1 X-30.7083 Y31.2812 F400.00
G1 X-30.7194 Y31.3034 F400.00
G1 X-30.7273 Y31.3270 F400.00
G1 X-30.7311 Y31.3464 F400.00
G1 X-30.7329 Y31.3712 F400.00
G1 X-30.7311 Y31.3960 F400.00
G1 X-30.7273 Y31.4154 F400.00
G1 X-30.7194 Y31.4390 F400.00
G1 X-30.7083 Y31.4612 F400.00
G1 X-30.5130 Y31.7539 F400.00
G1 X-30.3750 Y32.0871 F400.00
G1 X-30.3047 Y32.4409 F400.00
G1 X-30.3047 Y32.8015 F400.00
G0 Z3.0000 F400.00
G0 X-34.3157 Y35.0534 F400.00
G1 F400.00
G1 Z-0.3000 F400.00
G1 F400.00
G1 X-34.3868 Y35.4108 F400.00
G1 X-34.5262 Y35.7475 F400.00
G1 X-34.7287 Y36.0505 F400.00
G1 X-34.9863 Y36.3081 F400.00
G1 X-35.2893 Y36.5106 F400.00
G1 X-35.6260 Y36.6500 F400.00
G1 X-35.9834 Y36.7211 F400.00
G1 X-36.3478 Y36.7211 F400.00
G1 X-36.7052 Y36.6500 F400.00
G1 X-37.0419 Y36.5106 F400.00
G1 X-37.3449 Y36.3081 F400.00
G1 X-37.6025 Y36.0505 F400.00
G1 X-37.8050 Y35.7475 F400.00
G1 X-37.9444 Y35.4108 F400.00
G1 X-38.0155 Y35.0534 F400.00
G1 X-38.0155 Y34.6890 F400.00
G1 X-37.9444 Y34.3316 F400.00
G1 X-37.8050 Y33.9949 F400.00
G1 X-37.6025 Y33.6919 F400.00
G1 X-37.3449 Y33.4343 F400.00
G1 X-37.0419 Y33.2318 F400.00
G1 X-36.7052 Y33.0924 F400.00
G1 X-36.3478 Y33.0213 F400.00
G1 X-35.9834 Y33.0213 F400.00
G1 X-35.6260 Y33.0924 F400.00
G1 X-35.2893 Y33.2318 F400.00
G1 X-34.9863 Y33.4343 F400.00
G1 X-34.7287 Y33.6919 F400.00
G1 X-34.5262 Y33.9949 F400.00
G1 X-34.3868 Y34.3316 F400.00
G1 X-34.3157 Y34.6890 F400.00
G1 X-34.3157 Y35.0534 F400.00
G0 Z3.0000 F400.00
G0 X-38.0155 Y42.0534 F400.00
G1 F400.00
G1 Z-0.3000 F400.00
G1 F400.00
G1 X-38.0155 Y41.6890 F400.00
G1 X-37.9444 Y41.3316 F400.00
G1 X-37.8050 Y40.9949 F400.00
G1 X-37.6025 Y40.6919 F400.00
G1 X-37.3449 Y40.4343 F400.00
G1 X-37.0419 Y40.2318 F400.00
G1 X-36.7052 Y40.0924 F400.00
G1 X-36.3478 Y40.0213 F400.00
G1 X-35.9834 Y40.0213 F400.00
G1 X-35.6260 Y40.0924 F400.00
G1 X-35.2893 Y40.2318 F400.00
G1 X-34.9863 Y40.4343 F400.00
G1 X-34.7287 Y40.6919 F400.00
G1 X-34.5262 Y40.9949 F400.00
G1 X-34.3868 Y41.3316 F400.00
G1 X-34.3157 Y41.6890 F400.00
G1 X-34.3157 Y42.0534 F400.00
G1 X-34.3868 Y42.4108 F400.00
G1 X-34.5262 Y42.7475 F400.00
G1 X-34.7287 Y43.0505 F400.00
G1 X-34.9863 Y43.3081 F400.00
G1 X-35.2893 Y43.5106 F400.00
G1 X-35.6260 Y43.6500 F400.00
G1 X-35.9834 Y43.7211 F400.00
G1 X-36.3478 Y43.7211 F400.00
G1 X-36.7052 Y43.6500 F400.00
G1 X-37.0419 Y43.5106 F400.00
G1 X-37.3449 Y43.3081 F400.00
G1 X-37.6025 Y43.0505 F400.00
G1 X-37.8050 Y42.7475 F400.00
G1 X-37.9444 Y42.4108 F400.00
G1 X-38.0155 Y42.0534 F400.00
G0 Z3.0000 F400.00
G0 X-41.9357 Y42.0534 F400.00
G1 F400.00
G1 Z-0.3000 F400.00
G1 F400.00
G1 X-42.0068 Y42.4108 F400.00
G1 X-42.1462 Y42.7475 F400.00
G1 X-42.3487 Y43.0505 F400.00
G1 X-42.6063 Y43.3081 F400.00
G1 X-42.9093 Y43.5106 F400.00
G1 X-43.2460 Y43.6500 F400.00
G1 X-43.6034 Y43.7211 F400.00
G1 X-43.9678 Y43.7211 F400.00
G1 X-44.3252 Y43.6500 F400.00
G1 X-44.6619 Y43.5106 F400.00
G1 X-44.9649 Y43.3081 F400.00
G1 X-45.2225 Y43.0505 F400.00
G1 X-45.4250 Y42.7475 F400.00
G1 X-45.5644 Y42.4108 F400.00
G1 X-45.6355 Y42.0534 F400.00
G1 X-45.6355 Y41.6890 F400.00
G1 X-45.5644 Y41.3316 F400.00
G1 X-45.4250 Y40.9949 F400.00
G1 X-45.2225 Y40.6919 F400.00
G1 X-44.9649 Y40.4343 F400.00
G1 X-44.6619 Y40.2318 F400.00
G1 X-44.3252 Y40.0924 F400.00
G1 X-43.9678 Y40.0213 F400.00
G1 X-43.6034 Y40.0213 F400.00
G1 X-43.2460 Y40.0924 F400.00
G1 X-42.9093 Y40.2318 F400.00
G1 X-42.6063 Y40.4343 F400.00
G1 X-42.3487 Y40.6919 F400.00
G1 X-42.1462 Y40.9949 F400.00
G1 X-42.0068 Y41.3316 F400.00
G1 X-41.9357 Y41.6890 F400.00
G1 X-41.9357 Y42.0534 F400.00
G0 Z3.0000 F400.00
G0 X-41.9857 Y49.8534 F400.00
G1 F400.00
G1 Z-0.3000 F400.00
G1 F400.00
G1 X-42.0568 Y50.2108 F400.00
G1 X-42.1962 Y50.5475 F400.00
G1 X-42.3987 Y50.8505 F400.00
G1 X-42.6563 Y51.1081 F400.00
G1 X-42.9593 Y51.3106 F400.00
G1 X-43.2960 Y51.4500 F400.00
G1 X-43.6534 Y51.5211 F400.00
G1 X-44.0178 Y51.5211 F400.00
G1 X-44.3752 Y51.4500 F400.00
G1 X-44.7119 Y51.3106 F400.00
G1 X-45.0149 Y51.1081 F400.00
G1 X-45.2725 Y50.8505 F400.00
G1 X-45.4750 Y50.5475 F400.00
G1 X-45.6144 Y50.2108 F400.00
G1 X-45.6855 Y49.8534 F400.00
G1 X-45.6855 Y49.4890 F400.00
G1 X-45.6144 Y49.1316 F400.00
G1 X-45.4750 Y48.7949 F400.00
G1 X-45.2725 Y48.4919 F400.00
G1 X-45.0149 Y48.2343 F400.00
G1 X-44.7119 Y48.0318 F400.00
G1 X-44.3752 Y47.8924 F400.00
G1 X-44.0178 Y47.8213 F400.00
G1 X-43.6534 Y47.8213 F400.00
G1 X-43.2960 Y47.8924 F400.00
G1 X-42.9593 Y48.0318 F400.00
G1 X-42.6563 Y48.2343 F400.00
G1 X-42.3987 Y48.4919 F400.00
G1 X-42.1962 Y48.7949 F400.00
G1 X-42.0568 Y49.1316 F400.00
G1 X-41.9857 Y49.4890 F400.00
G1 X-41.9857 Y49.8534 F400.00
G0 Z3.0000 F400.00
G0 X-38.0655 Y49.8534 F400.00
G1 F400.00
G1 Z-0.3000 F400.00
G1 F400.00
G1 X-38.0655 Y49.4890 F400.00
G1 X-37.9944 Y49.1316 F400.00
G1 X-37.8550 Y48.7949 F400.00
G1 X-37.6525 Y48.4919 F400.00
G1 X-37.3949 Y48.2343 F400.00
G1 X-37.0919 Y48.0318 F400.00
G1 X-36.7552 Y47.8924 F400.00
G1 X-36.3978 Y47.8213 F400.00
G1 X-36.0334 Y47.8213 F400.00
G1 X-35.6760 Y47.8924 F400.00
G1 X-35.3393 Y48.0318 F400.00
G1 X-35.0363 Y48.2343 F400.00
G1 X-34.7787 Y48.4919 F400.00
G1 X-34.5762 Y48.7949 F400.00
G1 X-34.4368 Y49.1316 F400.00
G1 X-34.3657 Y49.4890 F400.00
G1 X-34.3657 Y49.8534 F400.00
G1 X-34.4368 Y50.2108 F400.00
G1 X-34.5762 Y50.5475 F400.00
G1 X-34.7787 Y50.8505 F400.00
G1 X-35.0363 Y51.1081 F400.00
G1 X-35.3393 Y51.3106 F400.00
G1 X-35.6760 Y51.4500 F400.00
G1 X-36.0334 Y51.5211 F400.00
G1 X-36.3978 Y51.5211 F400.00
G1 X-36.7552 Y51.4500 F400.00
G1 X-37.0919 Y51.3106 F400.00
G1 X-37.3949 Y51.1081 F400.00
G1 X-37.6525 Y50.8505 F400.00
G1 X-37.8550 Y50.5475 F400.00
G1 X-37.9944 Y50.2108 F400.00
G1 X-38.0655 Y49.8534 F400.00
G0 Z3.0000 F400.00
G0 X-28.1356 Y54.4718 F400.00
G1 F400.00
G1 Z-0.3000 F400.00
G1 F400.00
G1 X-28.1337 Y54.3951 F400.00
G1 X-28.1281 Y54.3193 F400.00
G1 X-28.1188 Y54.2438 F400.00
G1 X-28.1058 Y54.1688 F400.00
G1 X-28.0891 Y54.0946 F400.00
G1 X-28.0689 Y54.0213 F400.00
G1 X-28.0450 Y53.9490 F400.00
G1 X-28.0176 Y53.8780 F400.00
G1 X-27.9868 Y53.8085 F400.00
G1 X-27.9526 Y53.7405 F400.00
G1 X-27.9151 Y53.6743 F400.00
G1 X-27.8744 Y53.6101 F400.00
G1 X-27.8306 Y53.5479 F400.00
G1 X-27.7838 Y53.4879 F400.00
G1 X-27.7341 Y53.4303 F400.00
G1 X-27.6816 Y53.3752 F400.00
G1 X-27.6265 Y53.3227 F400.00
