;Marlin(Repetier) G-CODE GENERATED BY FLATCAM v8.96 - www.flatcam.org - Version Date:    2019/08/23

;Name: placa_sensores-PTH.drl_cnc
;Type: G-code from Excellon
;Units: MM

;Created on Thursday, 03 October 2019 at 15:41

;Feedrate: 400.0 mm/min
;Feedrate rapids 400.0 mm/min

;Z_Cut: -1.75 mm
;Z_Move: 3.0 mm
;Z Toolchange: 12.7 mm
;X,Y Toolchange: 0.0000, 0.0000 mm
;Z Start: None mm
;Z End: 12.7 mm
;Steps per circle: 128
;Postprocessor Excellon: marlin
;X range:  -72.0356 ...  -25.0856  mm
;Y range:   12.1712 ...   55.9712  mm

;Spindle Speed: None RPM


G21
G90

G1 F400.00
G0 Z3.0000 F400.00

M3
G0 X-62.4356 Y45.4212 F400.00
G1 Z-1.7500 F400.00
G1 Z0 G1 F400.00
G0 Z3.0000 F400.00
G0 X-62.4356 Y47.9212 F400.00
G1 Z-1.7500 F400.00
G1 Z0 G1 F400.00
G0 Z3.0000 F400.00
G0 X-62.4356 Y50.4212 F400.00
G1 Z-1.7500 F400.00
G1 Z0 G1 F400.00
G0 Z3.0000 F400.00
G0 X-25.6856 Y46.3712 F400.00
G1 Z-1.7500 F400.00
G1 Z0 G1 F400.00
G0 Z3.0000 F400.00
G0 X-25.6856 Y43.8712 F400.00
G1 Z-1.7500 F400.00
G1 Z0 G1 F400.00
G0 Z3.0000 F400.00
G0 X-25.6856 Y41.3712 F400.00
G1 Z-1.7500 F400.00
G1 Z0 G1 F400.00
G0 Z3.0000 F400.00
G0 X-25.6856 Y38.8712 F400.00
G1 Z-1.7500 F400.00
G1 Z0 G1 F400.00
G0 Z3.0000 F400.00
G0 X-32.1356 Y32.6212 F400.00
G1 Z-1.7500 F400.00
G1 Z0 G1 F400.00
G0 Z3.0000 F400.00
G0 X-32.1356 Y30.1212 F400.00
G1 Z-1.7500 F400.00
G1 Z0 G1 F400.00
G0 Z3.0000 F400.00
G0 X-32.1356 Y27.6212 F400.00
G1 Z-1.7500 F400.00
G1 Z0 G1 F400.00
G0 Z3.0000 F400.00
G0 X-32.1356 Y25.1212 F400.00
G1 Z-1.7500 F400.00
G1 Z0 G1 F400.00
G0 Z3.0000 F400.00
G0 X-32.1356 Y22.6212 F400.00
G1 Z-1.7500 F400.00
G1 Z0 G1 F400.00
G0 Z3.0000 F400.00
G0 X-32.1356 Y20.1212 F400.00
G1 Z-1.7500 F400.00
G1 Z0 G1 F400.00
G0 Z3.0000 F400.00
G0 X-44.3356 Y29.1212 F400.00
G1 Z-1.7500 F400.00
G1 Z0 G1 F400.00
G0 Z3.0000 F400.00
G0 X-46.8356 Y29.1212 F400.00
G1 Z-1.7500 F400.00
G1 Z0 G1 F400.00
G0 Z3.0000 F400.00
G0 X-49.3356 Y29.1212 F400.00
G1 Z-1.7500 F400.00
G1 Z0 G1 F400.00
G0 Z3.0000 F400.00
G0 X-51.8356 Y29.1212 F400.00
G1 Z-1.7500 F400.00
G1 Z0 G1 F400.00
G0 Z3.0000 F400.00
G0 X-54.3356 Y29.1212 F400.00
G1 Z-1.7500 F400.00
G1 Z0 G1 F400.00
G0 Z3.0000 F400.00
G0 X-62.4356 Y32.9212 F400.00
G1 Z-1.7500 F400.00
G1 Z0 G1 F400.00
G0 Z3.0000 F400.00
G0 X-62.4356 Y35.4212 F400.00
G1 Z-1.7500 F400.00
G1 Z0 G1 F400.00
G0 Z3.0000 F400.00
G0 X-62.4356 Y37.9212 F400.00
G1 Z-1.7500 F400.00
G1 Z0 G1 F400.00
G0 Z3.0000 F400.00
G0 X-62.4356 Y40.4212 F400.00
G1 Z-1.7500 F400.00
G1 Z0 G1 F400.00
G0 Z3.0000 F400.00
G0 X-62.4356 Y42.9212 F400.00
G1 Z-1.7500 F400.00
G1 Z0 G1 F400.00
G0 Z3.0000 F400.00
M3
G0 X-41.8356 Y29.1212 F400.00
G1 Z-1.7500 F400.00
G1 Z0 G1 F400.00
G0 Z3.0000 F400.00
G0 X-43.7856 Y34.8712 F400.00
G1 Z-1.7500 F400.00
G1 Z0 G1 F400.00
G0 Z3.0000 F400.00
G0 X-43.7856 Y41.8712 F400.00
G1 Z-1.7500 F400.00
G1 Z0 G1 F400.00
G0 Z3.0000 F400.00
G0 X-43.8356 Y49.6712 F400.00
G1 Z-1.7500 F400.00
G1 Z0 G1 F400.00
G0 Z3.0000 F400.00
G0 X-36.2156 Y49.6712 F400.00
G1 Z-1.7500 F400.00
G1 Z0 G1 F400.00
G0 Z3.0000 F400.00
G0 X-36.1656 Y41.8712 F400.00
G1 Z-1.7500 F400.00
G1 Z0 G1 F400.00
G0 Z3.0000 F400.00
G0 X-36.1656 Y34.8712 F400.00
G1 Z-1.7500 F400.00
G1 Z0 G1 F400.00
G0 Z3.0000 F400.00
M3
G0 X-71.5356 Y30.6712 F400.00
G1 Z-1.7500 F400.00
G1 Z0 G1 F400.00
G0 Z3.0000 F400.00
G0 X-71.5356 Y28.1312 F400.00
G1 Z-1.7500 F400.00
G1 Z0 G1 F400.00
G0 Z3.0000 F400.00
G0 X-71.5356 Y25.5912 F400.00
G1 Z-1.7500 F400.00
G1 Z0 G1 F400.00
G0 Z3.0000 F400.00
G0 X-71.5356 Y23.0512 F400.00
G1 Z-1.7500 F400.00
G1 Z0 G1 F400.00
G0 Z3.0000 F400.00
G0 X-71.5356 Y20.5112 F400.00
G1 Z-1.7500 F400.00
G1 Z0 G1 F400.00
G0 Z3.0000 F400.00
G0 X-71.5356 Y17.9712 F400.00
G1 Z-1.7500 F400.00
G1 Z0 G1 F400.00
G0 Z3.0000 F400.00
G0 X-71.3856 Y35.7912 F400.00
G1 Z-1.7500 F400.00
G1 Z0 G1 F400.00
G0 Z3.0000 F400.00
G0 X-71.3856 Y38.3312 F400.00
G1 Z-1.7500 F400.00
G1 Z0 G1 F400.00
G0 Z3.0000 F400.00
G0 X-71.3856 Y40.8712 F400.00
G1 Z-1.7500 F400.00
G1 Z0 G1 F400.00
G0 Z3.0000 F400.00
G0 X-71.3856 Y43.4112 F400.00
G1 Z-1.7500 F400.00
G1 Z0 G1 F400.00
G0 Z3.0000 F400.00
G0 X-71.3856 Y45.9512 F400.00
G1 Z-1.7500 F400.00
G1 Z0 G1 F400.00
G0 Z3.0000 F400.00
G0 X-71.3856 Y48.4912 F400.00
G1 Z-1.7500 F400.00
G1 Z0 G1 F400.00
G0 Z3.0000 F400.00
M3
G0 X-26.5856 Y54.4712 F400.00
G1 Z-1.7500 F400.00
G1 Z0 G1 F400.00
G0 Z3.0000 F400.00
G0 X-67.2856 Y54.4712 F400.00
G1 Z-1.7500 F400.00
G1 Z0 G1 F400.00
G0 Z3.0000 F400.00
G0 X-67.2856 Y13.6712 F400.00
G1 Z-1.7500 F400.00
G1 Z0 G1 F400.00
G0 Z3.0000 F400.00
G0 X-26.5856 Y13.6712 F400.00
G1 Z-1.7500 F400.00
G1 Z0 G1 F400.00
G0 Z3.0000 F400.00
M5
G0 Z12.70 F400.00
G0 X0.0 Y0.0 F400.00

M02