;Marlin(Repetier) G-CODE GENERATED BY FLATCAM v8.96 - www.flatcam.org - Version Date:    2019/08/23

;Name: placa_sensores-F_Cu.gbr_iso_cnc
;Type: G-code from Geometry
;Units: MM

;Created on Thursday, 03 October 2019 at 15:42

;TOOL DIAMETER: 0.1 mm

;Feedrate: 400.0 mm/min
;Feedrate_Z: 400.0 mm/min
;Feedrate rapids 400.0 mm/min

;Z_Cut: -0.3 mm
;Z_Move: 3.0 mm
;Z Toolchange: 12.7 mm
;X,Y Toolchange: 0.0000, 0.0000 mm
;Z Start: None mm
;Z End: 12.7 mm
;Steps per circle: 128
;Postprocessor Geometry: marlin

;X range:   16.2027 ...   75.6358  mm
;Y range:    5.7008 ...   61.3255  mm

;Spindle Speed: None RPM


G21
G90

G1 F400.00
G0 Z3.0000 F400.00

M3
G0 X25.0374 Y13.7460 F400.00
G1 F400.00
G1 Z-0.3000 F400.00
G1 F400.00
G1 X25.0356 Y13.6712 F400.00
G1 X25.0375 Y13.5939 F400.00
G1 X25.0432 Y13.5181 F400.00
G1 X25.0526 Y13.4426 F400.00
G1 X25.0656 Y13.3676 F400.00
G1 X25.0824 Y13.2934 F400.00
G1 X25.1021 Y13.2221 F400.00
G1 X25.1258 Y13.1501 F400.00
G1 X25.1531 Y13.0792 F400.00
G1 X25.1849 Y13.0075 F400.00
G1 X25.2192 Y12.9395 F400.00
G1 X25.2568 Y12.8733 F400.00
G1 X25.2975 Y12.8091 F400.00
G1 X25.3414 Y12.7469 F400.00
G1 X25.3882 Y12.6870 F400.00
G1 X25.4380 Y12.6294 F400.00
G1 X25.4896 Y12.5752 F400.00
G1 X25.5455 Y12.5220 F400.00
G1 X25.6032 Y12.4723 F400.00
G1 X25.6633 Y12.4255 F400.00
G1 X25.7255 Y12.3818 F400.00
G1 X25.7898 Y12.3411 F400.00
G1 X25.8560 Y12.3037 F400.00
G1 X25.9219 Y12.2705 F400.00
G1 X25.9935 Y12.2388 F400.00
G1 X26.0645 Y12.2114 F400.00
G1 X26.1365 Y12.1877 F400.00
G1 X26.2100 Y12.1674 F400.00
G1 X26.2844 Y12.1508 F400.00
G1 X26.3594 Y12.1378 F400.00
G1 X26.4349 Y12.1286 F400.00
G1 X26.5102 Y12.1230 F400.00
G1 X26.5856 Y12.1212 F400.00
G1 X26.6604 Y12.1230 F400.00
G1 X26.7363 Y12.1286 F400.00
G1 X26.8118 Y12.1378 F400.00
G1 X26.8868 Y12.1508 F400.00
G1 X26.9610 Y12.1674 F400.00
G1 X27.0347 Y12.1877 F400.00
G1 X27.1067 Y12.2114 F400.00
G1 X27.1799 Y12.2397 F400.00
G1 X27.2493 Y12.2705 F400.00
G1 X27.3173 Y12.3048 F400.00
G1 X27.3835 Y12.3424 F400.00
G1 X27.4475 Y12.3830 F400.00
G1 X27.5099 Y12.4270 F400.00
G1 X27.5698 Y12.4738 F400.00
G1 X27.6274 Y12.5236 F400.00
G1 X27.6816 Y12.5752 F400.00
G1 X27.7348 Y12.6311 F400.00
G1 X27.7845 Y12.6888 F400.00
G1 X27.8313 Y12.7489 F400.00
G1 X27.8750 Y12.8111 F400.00
G1 X27.9157 Y12.8754 F400.00
G1 X27.9531 Y12.9416 F400.00
G1 X27.9863 Y13.0075 F400.00
G1 X28.0180 Y13.0791 F400.00
G1 X28.0454 Y13.1501 F400.00
G1 X28.0691 Y13.2221 F400.00
G1 X28.0894 Y13.2956 F400.00
G1 X28.1060 Y13.3700 F400.00
G1 X28.1190 Y13.4450 F400.00
G1 X28.1282 Y13.5205 F400.00
G1 X28.1338 Y13.5958 F400.00
G1 X28.1356 Y13.6712 F400.00
G1 X28.1338 Y13.7460 F400.00
G1 X28.1282 Y13.8219 F400.00
G1 X28.1190 Y13.8974 F400.00
G1 X28.1060 Y13.9724 F400.00
G1 X28.0894 Y14.0466 F400.00
G1 X28.0691 Y14.1203 F400.00
G1 X28.0454 Y14.1923 F400.00
G1 X28.0181 Y14.2632 F400.00
G1 X27.9863 Y14.3349 F400.00
G1 X27.9520 Y14.4029 F400.00
G1 X27.9144 Y14.4691 F400.00
G1 X27.8738 Y14.5331 F400.00
G1 X27.8298 Y14.5955 F400.00
G1 X27.7830 Y14.6554 F400.00
G1 X27.7332 Y14.7130 F400.00
G1 X27.6816 Y14.7672 F400.00
G1 X27.6257 Y14.8204 F400.00
G1 X27.5680 Y14.8701 F400.00
G1 X27.5079 Y14.9169 F400.00
G1 X27.4457 Y14.9606 F400.00
G1 X27.3814 Y15.0013 F400.00
G1 X27.3152 Y15.0387 F400.00
G1 X27.2493 Y15.0719 F400.00
G1 X27.1777 Y15.1036 F400.00
G1 X27.1067 Y15.1310 F400.00
G1 X27.0347 Y15.1547 F400.00
G1 X26.9612 Y15.1750 F400.00
G1 X26.8868 Y15.1916 F400.00
G1 X26.8118 Y15.2046 F400.00
G1 X26.7363 Y15.2138 F400.00
G1 X26.6610 Y15.2194 F400.00
G1 X26.5856 Y15.2212 F400.00
G1 X26.5108 Y15.2194 F400.00
G1 X26.4349 Y15.2138 F400.00
G1 X26.3594 Y15.2046 F400.00
G1 X26.2844 Y15.1916 F400.00
G1 X26.2102 Y15.1750 F400.00
G1 X26.1365 Y15.1547 F400.00
G1 X26.0645 Y15.1310 F400.00
G1 X25.9913 Y15.1027 F400.00
G1 X25.9219 Y15.0719 F400.00
G1 X25.8539 Y15.0376 F400.00
G1 X25.7877 Y15.0000 F400.00
G1 X25.7237 Y14.9594 F400.00
G1 X25.6613 Y14.9154 F400.00
G1 X25.6017 Y14.8688 F400.00
G1 X25.5438 Y14.8188 F400.00
G1 X25.4896 Y14.7672 F400.00
G1 X25.4364 Y14.7113 F400.00
G1 X25.3867 Y14.6536 F400.00
G1 X25.3399 Y14.5935 F400.00
G1 X25.2962 Y14.5313 F400.00
G1 X25.2555 Y14.4670 F400.00
G1 X25.2181 Y14.4008 F400.00
G1 X25.1849 Y14.3349 F400.00
G1 X25.1532 Y14.2633 F400.00
G1 X25.1258 Y14.1923 F400.00
G1 X25.1021 Y14.1203 F400.00
G1 X25.0818 Y14.0468 F400.00
G1 X25.0652 Y13.9724 F400.00
G1 X25.0522 Y13.8974 F400.00
G1 X25.0430 Y13.8219 F400.00
G1 X25.0374 Y13.7460 F400.00
G0 Z3.0000 F400.00
G0 X31.0868 Y20.1715 F400.00
G1 F400.00
G1 Z-0.3000 F400.00
G1 F400.00
G1 X31.0856 Y20.1212 F400.00
G1 X31.0869 Y20.0685 F400.00
G1 X31.0906 Y20.0191 F400.00
G1 X31.0972 Y19.9659 F400.00
G1 X31.1060 Y19.9152 F400.00
G1 X31.1174 Y19.8649 F400.00
G1 X31.1312 Y19.8152 F400.00
G1 X31.1466 Y19.7685 F400.00
G1 X31.1660 Y19.7183 F400.00
G1 X31.1869 Y19.6713 F400.00
G1 X31.2090 Y19.6273 F400.00
G1 X31.2344 Y19.5825 F400.00
G1 X31.2619 Y19.5389 F400.00
G1 X31.2915 Y19.4967 F400.00
G1 X31.3245 Y19.4545 F400.00
G1 X31.3580 Y19.4156 F400.00
G1 X31.3931 Y19.3787 F400.00
G1 X31.4296 Y19.3440 F400.00
G1 X31.4685 Y19.3103 F400.00
G1 X31.5091 Y19.2786 F400.00
G1 X31.5512 Y19.2489 F400.00
G1 X31.5947 Y19.2212 F400.00
G1 X31.6396 Y19.1958 F400.00
G1 X31.6857 Y19.1725 F400.00
G1 X31.7349 Y19.1507 F400.00
G1 X31.7829 Y19.1322 F400.00
G1 X31.8296 Y19.1168 F400.00
G1 X31.8793 Y19.1030 F400.00
G1 X31.9296 Y19.0916 F400.00
G1 X31.9803 Y19.0828 F400.00
G1 X32.0335 Y19.0762 F400.00
G1 X32.0847 Y19.0724 F400.00
G1 X32.1356 Y19.0712 F400.00
G1 X32.1859 Y19.0724 F400.00
G1 X32.2373 Y19.0762 F400.00
G1 X32.2885 Y19.0824 F400.00
G1 X32.3392 Y19.0912 F400.00
G1 X32.3895 Y19.1024 F400.00
G1 X32.4392 Y19.1161 F400.00
G1 X32.4883 Y19.1322 F400.00
G1 X32.5385 Y19.1516 F400.00
G1 X32.5855 Y19.1725 F400.00
G1 X32.6316 Y19.1958 F400.00
G1 X32.6765 Y19.2212 F400.00
G1 X32.7198 Y19.2487 F400.00
G1 X32.7621 Y19.2786 F400.00
G1 X32.8023 Y19.3101 F400.00
G1 X32.8416 Y19.3440 F400.00
G1 X32.8781 Y19.3787 F400.00
G1 X32.9144 Y19.4170 F400.00
G1 X32.9480 Y19.4560 F400.00
G1 X32.9797 Y19.4967 F400.00
G1 X33.0093 Y19.5389 F400.00
G1 X33.0368 Y19.5825 F400.00
G1 X33.0622 Y19.6273 F400.00
G1 X33.0843 Y19.6713 F400.00
G1 X33.1061 Y19.7205 F400.00
G1 X33.1246 Y19.7685 F400.00
G1 X33.1400 Y19.8152 F400.00
G1 X33.1538 Y19.8649 F400.00
G1 X33.1652 Y19.9152 F400.00
G1 X33.1740 Y19.9659 F400.00
G1 X33.1804 Y20.0171 F400.00
G1 X33.1844 Y20.0703 F400.00
G1 X33.1856 Y20.1212 F400.00
G1 X33.1844 Y20.1715 F400.00
G1 X33.1806 Y20.2229 F400.00
G1 X33.1744 Y20.2741 F400.00
G1 X33.1656 Y20.3248 F400.00
G1 X33.1544 Y20.3751 F400.00
G1 X33.1407 Y20.4248 F400.00
G1 X33.1246 Y20.4739 F400.00
G1 X33.1061 Y20.5219 F400.00
G1 X33.0843 Y20.5711 F400.00
G1 X33.0610 Y20.6172 F400.00
G1 X33.0356 Y20.6621 F400.00
G1 X33.0081 Y20.7054 F400.00
G1 X32.9782 Y20.7477 F400.00
G1 X32.9465 Y20.7883 F400.00
G1 X32.9128 Y20.8272 F400.00
G1 X32.8781 Y20.8637 F400.00
G1 X32.8398 Y20.9000 F400.00
G1 X32.8008 Y20.9336 F400.00
G1 X32.7601 Y20.9653 F400.00
G1 X32.7179 Y20.9949 F400.00
G1 X32.6743 Y21.0224 F400.00
G1 X32.6295 Y21.0478 F400.00
G1 X32.5855 Y21.0699 F400.00
G1 X32.5363 Y21.0917 F400.00
G1 X32.4883 Y21.1102 F400.00
G1 X32.4416 Y21.1256 F400.00
G1 X32.3919 Y21.1394 F400.00
G1 X32.3416 Y21.1508 F400.00
G1 X32.2909 Y21.1596 F400.00
G1 X32.2377 Y21.1662 F400.00
G1 X32.1865 Y21.1700 F400.00
G1 X32.1356 Y21.1712 F400.00
G1 X32.0853 Y21.1700 F400.00
G1 X32.0339 Y21.1662 F400.00
G1 X31.9827 Y21.1600 F400.00
G1 X31.9320 Y21.1512 F400.00
G1 X31.8817 Y21.1400 F400.00
G1 X31.8320 Y21.1263 F400.00
G1 X31.7829 Y21.1102 F400.00
G1 X31.7327 Y21.0908 F400.00
G1 X31.6857 Y21.0699 F400.00
G1 X31.6417 Y21.0478 F400.00
G1 X31.5969 Y21.0224 F400.00
G1 X31.5514 Y20.9937 F400.00
G1 X31.5111 Y20.9653 F400.00
G1 X31.4704 Y20.9336 F400.00
G1 X31.4300 Y20.8988 F400.00
G1 X31.3931 Y20.8637 F400.00
G1 X31.3584 Y20.8272 F400.00
G1 X31.3247 Y20.7883 F400.00
G1 X31.2930 Y20.7477 F400.00
G1 X31.2633 Y20.7056 F400.00
G1 X31.2356 Y20.6621 F400.00
G1 X31.2102 Y20.6172 F400.00
G1 X31.1869 Y20.5711 F400.00
G1 X31.1651 Y20.5219 F400.00
G1 X31.1466 Y20.4739 F400.00
G1 X31.1305 Y20.4248 F400.00
G1 X31.1168 Y20.3751 F400.00
G1 X31.1056 Y20.3248 F400.00
G1 X31.0968 Y20.2741 F400.00
G1 X31.0906 Y20.2233 F400.00
G1 X31.0868 Y20.1715 F400.00
G0 Z3.0000 F400.00
G0 X31.0868 Y22.6715 F400.00
G1 F400.00
G1 Z-0.3000 F400.00
G1 F400.00
G1 X31.0856 Y22.6212 F400.00
G1 X31.0869 Y22.5685 F400.00
G1 X31.0906 Y22.5191 F400.00
G1 X31.0972 Y22.4659 F400.00
G1 X31.1060 Y22.4152 F400.00
G1 X31.1174 Y22.3649 F400.00
G1 X31.1312 Y22.3152 F400.00
G1 X31.1466 Y22.2685 F400.00
G1 X31.1660 Y22.2183 F400.00
G1 X31.1869 Y22.1713 F400.00
G1 X31.2090 Y22.1273 F400.00
G1 X31.2344 Y22.0825 F400.00
G1 X31.2619 Y22.0389 F400.00
G1 X31.2915 Y21.9967 F400.00
G1 X31.3245 Y21.9545 F400.00
G1 X31.3580 Y21.9156 F400.00
G1 X31.3931 Y21.8787 F400.00
G1 X31.4296 Y21.8440 F400.00
G1 X31.4685 Y21.8103 F400.00
G1 X31.5091 Y21.7786 F400.00
G1 X31.5512 Y21.7489 F400.00
G1 X31.5947 Y21.7212 F400.00
G1 X31.6396 Y21.6958 F400.00
G1 X31.6857 Y21.6725 F400.00
G1 X31.7349 Y21.6507 F400.00
G1 X31.7829 Y21.6322 F400.00
G1 X31.8296 Y21.6168 F400.00
G1 X31.8793 Y21.6030 F400.00
G1 X31.9296 Y21.5916 F400.00
G1 X31.9803 Y21.5828 F400.00
G1 X32.0335 Y21.5762 F400.00
G1 X32.0847 Y21.5724 F400.00
G1 X32.1356 Y21.5712 F400.00
G1 X32.1859 Y21.5724 F400.00
G1 X32.2373 Y21.5762 F400.00
G1 X32.2885 Y21.5824 F400.00
G1 X32.3392 Y21.5912 F400.00
G1 X32.3895 Y21.6024 F400.00
G1 X32.4392 Y21.6161 F400.00
G1 X32.4883 Y21.6322 F400.00
G1 X32.5385 Y21.6516 F400.00
G1 X32.5855 Y21.6725 F400.00
G1 X32.6316 Y21.6958 F400.00
G1 X32.6765 Y21.7212 F400.00
G1 X32.7198 Y21.7487 F400.00
G1 X32.7621 Y21.7786 F400.00
G1 X32.8023 Y21.8101 F400.00
G1 X32.8416 Y21.8440 F400.00
G1 X32.8781 Y21.8787 F400.00
G1 X32.9144 Y21.9170 F400.00
G1 X32.9480 Y21.9560 F400.00
G1 X32.9797 Y21.9967 F400.00
G1 X33.0093 Y22.0389 F400.00
G1 X33.0368 Y22.0825 F400.00
G1 X33.0622 Y22.1273 F400.00
G1 X33.0843 Y22.1713 F400.00
G1 X33.1061 Y22.2205 F400.00
G1 X33.1246 Y22.2685 F400.00
G1 X33.1400 Y22.3152 F400.00
G1 X33.1538 Y22.3649 F400.00
G1 X33.1652 Y22.4152 F400.00
G1 X33.1740 Y22.4659 F400.00
G1 X33.1804 Y22.5171 F400.00
G1 X33.1844 Y22.5703 F400.00
G1 X33.1856 Y22.6212 F400.00
G1 X33.1844 Y22.6715 F400.00
G1 X33.1806 Y22.7229 F400.00
G1 X33.1744 Y22.7741 F400.00
G1 X33.1656 Y22.8248 F400.00
G1 X33.1544 Y22.8751 F400.00
G1 X33.1407 Y22.9248 F400.00
G1 X33.1246 Y22.9739 F400.00
G1 X33.1061 Y23.0219 F400.00
G1 X33.0843 Y23.0711 F400.00
G1 X33.0610 Y23.1172 F400.00
G1 X33.0356 Y23.1621 F400.00
G1 X33.0081 Y23.2054 F400.00
G1 X32.9782 Y23.2477 F400.00
G1 X32.9465 Y23.2883 F400.00
G1 X32.9128 Y23.3272 F400.00
G1 X32.8781 Y23.3637 F400.00
G1 X32.8398 Y23.4000 F400.00
G1 X32.8008 Y23.4336 F400.00
G1 X32.7601 Y23.4653 F400.00
G1 X32.7179 Y23.4949 F400.00
G1 X32.6743 Y23.5224 F400.00
G1 X32.6295 Y23.5478 F400.00
G1 X32.5855 Y23.5699 F400.00
G1 X32.5363 Y23.5917 F400.00
G1 X32.4883 Y23.6102 F400.00
G1 X32.4416 Y23.6256 F400.00
G1 X32.3919 Y23.6394 F400.00
G1 X32.3416 Y23.6508 F400.00
G1 X32.2909 Y23.6596 F400.00
G1 X32.2377 Y23.6662 F400.00
G1 X32.1865 Y23.6700 F400.00
G1 X32.1356 Y23.6712 F400.00
G1 X32.0853 Y23.6700 F400.00
G1 X32.0339 Y23.6662 F400.00
G1 X31.9827 Y23.6600 F400.00
G1 X31.9320 Y23.6512 F400.00
G1 X31.8817 Y23.6400 F400.00
G1 X31.8320 Y23.6263 F400.00
G1 X31.7829 Y23.6102 F400.00
G1 X31.7327 Y23.5908 F400.00
G1 X31.6857 Y23.5699 F400.00
G1 X31.6417 Y23.5478 F400.00
G1 X31.5969 Y23.5224 F400.00
G1 X31.5514 Y23.4937 F400.00
G1 X31.5111 Y23.4653 F400.00
G1 X31.4704 Y23.4336 F400.00
G1 X31.4300 Y23.3988 F400.00
G1 X31.3931 Y23.3637 F400.00
G1 X31.3584 Y23.3272 F400.00
G1 X31.3247 Y23.2883 F400.00
G1 X31.2930 Y23.2477 F400.00
G1 X31.2633 Y23.2056 F400.00
G1 X31.2356 Y23.1621 F400.00
G1 X31.2102 Y23.1172 F400.00
G1 X31.1869 Y23.0711 F400.00
G1 X31.1651 Y23.0219 F400.00
G1 X31.1466 Y22.9739 F400.00
G1 X31.1305 Y22.9248 F400.00
G1 X31.1168 Y22.8751 F400.00
G1 X31.1056 Y22.8248 F400.00
G1 X31.0968 Y22.7741 F400.00
G1 X31.0906 Y22.7233 F400.00
G1 X31.0868 Y22.6715 F400.00
G0 Z3.0000 F400.00
G0 X31.0868 Y25.1715 F400.00
G1 F400.00
G1 Z-0.3000 F400.00
G1 F400.00
G1 X31.0856 Y25.1212 F400.00
G1 X31.0868 Y25.0709 F400.00
G1 X31.0906 Y25.0191 F400.00
G1 X31.0972 Y24.9659 F400.00
G1 X31.1060 Y24.9152 F400.00
G1 X31.1168 Y24.8673 F400.00
G1 X31.1312 Y24.8152 F400.00
G1 X31.1466 Y24.7685 F400.00
G1 X31.1651 Y24.7205 F400.00
G1 X31.1869 Y24.6713 F400.00
G1 X31.2102 Y24.6252 F400.00
G1 X31.2344 Y24.5825 F400.00
G1 X31.2619 Y24.5389 F400.00
G1 X31.2930 Y24.4947 F400.00
G1 X31.3245 Y24.4545 F400.00
G1 X31.3568 Y24.4170 F400.00
G1 X31.3931 Y24.3787 F400.00
G1 X31.4314 Y24.3424 F400.00
G1 X31.4685 Y24.3103 F400.00
G1 X31.5091 Y24.2786 F400.00
G1 X31.5533 Y24.2475 F400.00
G1 X31.5969 Y24.2200 F400.00
G1 X31.6396 Y24.1958 F400.00
G1 X31.6878 Y24.1715 F400.00
G1 X31.7349 Y24.1507 F400.00
G1 X31.7807 Y24.1330 F400.00
G1 X31.8296 Y24.1168 F400.00
G1 X31.8817 Y24.1024 F400.00
G1 X31.9296 Y24.0916 F400.00
G1 X31.9803 Y24.0828 F400.00
G1 X32.0335 Y24.0762 F400.00
G1 X32.0853 Y24.0724 F400.00
G1 X32.1356 Y24.0712 F400.00
G1 X32.1859 Y24.0724 F400.00
G1 X32.2397 Y24.0764 F400.00
G1 X32.2885 Y24.0824 F400.00
G1 X32.3392 Y24.0912 F400.00
G1 X32.3919 Y24.1030 F400.00
G1 X32.4416 Y24.1168 F400.00
G1 X32.4883 Y24.1322 F400.00
G1 X32.5363 Y24.1507 F400.00
G1 X32.5855 Y24.1725 F400.00
G1 X32.6295 Y24.1946 F400.00
G1 X32.6743 Y24.2200 F400.00
G1 X32.7198 Y24.2487 F400.00
G1 X32.7601 Y24.2771 F400.00
G1 X32.8008 Y24.3088 F400.00
G1 X32.8416 Y24.3440 F400.00
G1 X32.8781 Y24.3787 F400.00
G1 X32.9144 Y24.4170 F400.00
G1 X32.9465 Y24.4541 F400.00
G1 X32.9782 Y24.4947 F400.00
G1 X33.0093 Y24.5389 F400.00
G1 X33.0368 Y24.5825 F400.00
G1 X33.0610 Y24.6252 F400.00
G1 X33.0853 Y24.6734 F400.00
G1 X33.1061 Y24.7205 F400.00
G1 X33.1246 Y24.7686 F400.00
G1 X33.1407 Y24.8176 F400.00
G1 X33.1544 Y24.8673 F400.00
G1 X33.1656 Y24.9176 F400.00
G1 X33.1740 Y24.9659 F400.00
G1 X33.1806 Y25.0195 F400.00
G1 X33.1844 Y25.0703 F400.00
G1 X33.1856 Y25.1212 F400.00
G1 X33.1844 Y25.1715 F400.00
G1 X33.1806 Y25.2229 F400.00
G1 X33.1740 Y25.2765 F400.00
G1 X33.1652 Y25.3272 F400.00
G1 X33.1544 Y25.3751 F400.00
G1 X33.1407 Y25.4248 F400.00
G1 X33.1247 Y25.4736 F400.00
G1 X36.4839 Y28.8329 F400.00
G1 X36.4983 Y28.8480 F400.00
G1 X36.5128 Y28.8647 F400.00
G1 X36.5279 Y28.8840 F400.00
G1 X36.5511 Y28.9187 F400.00
G1 X36.5632 Y28.9401 F400.00
G1 X36.5810 Y28.9778 F400.00
G1 X36.5891 Y28.9984 F400.00
G1 X36.5967 Y29.0214 F400.00
G1 X36.6025 Y29.0428 F400.00
G1 X36.6074 Y29.0646 F400.00
G1 X36.6135 Y29.1059 F400.00
G1 X36.6153 Y29.1297 F400.00
G1 X36.6158 Y29.1512 F400.00
G1 X36.6158 Y34.1505 F400.00
G1 X36.6386 Y34.1650 F400.00
G1 X36.6709 Y34.1878 F400.00
G1 X36.7055 Y34.2147 F400.00
G1 X36.7373 Y34.2422 F400.00
G1 X36.7666 Y34.2702 F400.00
G1 X36.7946 Y34.2995 F400.00
G1 X36.8219 Y34.3310 F400.00
G1 X36.8490 Y34.3659 F400.00
G1 X36.8730 Y34.4000 F400.00
G1 X36.8953 Y34.4353 F400.00
G1 X36.9146 Y34.4694 F400.00
G1 X36.9335 Y34.5068 F400.00
G1 X36.9514 Y34.5471 F400.00
G1 X36.9662 Y34.5858 F400.00
G1 X36.9786 Y34.6233 F400.00
G1 X36.9904 Y34.6657 F400.00
G1 X36.9995 Y34.7066 F400.00
G1 X37.0062 Y34.7453 F400.00
G1 X37.0114 Y34.7867 F400.00
G1 X37.0145 Y34.8283 F400.00
G1 X37.0156 Y34.8712 F400.00
G1 X37.0145 Y34.9141 F400.00
G1 X37.0116 Y34.9533 F400.00
G1 X37.0066 Y34.9947 F400.00
G1 X36.9990 Y35.0382 F400.00
G1 X36.9904 Y35.0765 F400.00
G1 X36.9793 Y35.1168 F400.00
G1 X36.9663 Y35.1564 F400.00
G1 X36.9504 Y35.1976 F400.00
G1 X36.9335 Y35.2356 F400.00
G1 X36.9158 Y35.2708 F400.00
G1 X36.8940 Y35.3092 F400.00
G1 X36.8718 Y35.3442 F400.00
G1 X36.8490 Y35.3765 F400.00
G1 X36.8221 Y35.4111 F400.00
G1 X36.7946 Y35.4429 F400.00
G1 X36.7666 Y35.4722 F400.00
G1 X36.7373 Y35.5002 F400.00
G1 X36.7039 Y35.5290 F400.00
G1 X36.6729 Y35.5532 F400.00
G1 X36.6388 Y35.5773 F400.00
G1 X36.6015 Y35.6009 F400.00
G1 X36.5652 Y35.6214 F400.00
G1 X36.5300 Y35.6391 F400.00
G1 X36.4920 Y35.6560 F400.00
G1 X36.4531 Y35.6711 F400.00
