;Marlin(Repetier) G-CODE GENERATED BY FLATCAM v8.96 - www.flatcam.org - Version Date:    2019/08/23

;Name: f_comp-Edge_Cuts.gbr_cutout_cnc
;Type: G-code from Geometry
;Units: MM

;Created on Thursday, 03 October 2019 at 17:23

;TOOL DIAMETER: 3.0 mm

;Feedrate: 400.0 mm/min
;Feedrate_Z: 400.0 mm/min
;Feedrate rapids 400.0 mm/min

;Z_Cut: -2.0 mm
;Z_Move: 3.0 mm
;Z Toolchange: 12.7 mm
;X,Y Toolchange: 0.0000, 0.0000 mm
;Z Start: None mm
;Z End: 12.7 mm
;Steps per circle: 128
;Postprocessor Geometry: marlin

;X range:  -79.4110 ...  -11.9976  mm
;Y range:    2.5267 ...   68.2456  mm

;Spindle Speed: None RPM


G21
G90

G1 F400.00
G0 Z3.0000 F400.00

M3
G0 X-33.1271 Y3.1866 F400.00
G1 F400.00
G1 Z-2.0000 F400.00
G1 F400.00
G1 X-34.6012 Y2.6339 F400.00
G1 X-34.6403 Y2.6201 F400.00
G1 X-34.6825 Y2.6063 F400.00
G1 X-34.7223 Y2.5944 F400.00
G1 X-34.7651 Y2.5827 F400.00
G1 X-34.8104 Y2.5716 F400.00
G1 X-34.8510 Y2.5628 F400.00
G1 X-34.8946 Y2.5544 F400.00
G1 X-34.9475 Y2.5457 F400.00
G1 X-35.0064 Y2.5380 F400.00
G1 X-35.0598 Y2.5327 F400.00
G1 X-35.1063 Y2.5295 F400.00
G1 X-35.1506 Y2.5276 F400.00
G1 X-35.2043 Y2.5267 F400.00
G1 X-35.2638 Y2.5277 F400.00
G1 X-35.3494 Y2.5328 F400.00
G1 X-35.4028 Y2.5381 F400.00
G1 X-35.4468 Y2.5436 F400.00
G1 X-35.4929 Y2.5507 F400.00
G1 X-35.5457 Y2.5604 F400.00
G1 X-35.6037 Y2.5729 F400.00
G1 X-35.6607 Y2.5873 F400.00
G1 X-35.7382 Y2.6102 F400.00
G1 X-35.7938 Y2.6290 F400.00
G1 X-35.8495 Y2.6500 F400.00
G1 X-35.9037 Y2.6726 F400.00
G1 X-35.9770 Y2.7066 F400.00
G1 X-36.0292 Y2.7334 F400.00
G1 X-36.0812 Y2.7623 F400.00
G1 X-36.1315 Y2.7926 F400.00
G1 X-36.1990 Y2.8370 F400.00
G1 X-36.2468 Y2.8711 F400.00
G1 X-36.2939 Y2.9073 F400.00
G1 X-36.3392 Y2.9447 F400.00
G1 X-36.3995 Y2.9985 F400.00
G1 X-36.4418 Y3.0393 F400.00
G1 X-36.4831 Y3.0821 F400.00
G1 X-36.5224 Y3.1257 F400.00
G1 X-36.5741 Y3.1877 F400.00
G1 X-36.6099 Y3.2343 F400.00
G1 X-36.6445 Y3.2827 F400.00
G1 X-36.6771 Y3.3315 F400.00
G1 X-36.7191 Y3.4005 F400.00
G1 X-36.7477 Y3.4518 F400.00
G1 X-36.7748 Y3.5047 F400.00
G1 X-36.7998 Y3.5579 F400.00
G1 X-36.8313 Y3.6323 F400.00
G1 X-36.8520 Y3.6872 F400.00
G1 X-36.8711 Y3.7435 F400.00
G1 X-36.8880 Y3.7998 F400.00
G1 X-36.9083 Y3.8780 F400.00
G1 X-36.9207 Y3.9354 F400.00
G1 X-36.9354 Y4.0200 F400.00
G1 X-36.9459 Y4.1053 F400.00
G1 X-36.9522 Y4.1909 F400.00
G1 X-36.9543 Y4.2768 F400.00
G1 X-36.9543 Y22.7403 F400.00
G1 X-54.4542 Y22.7403 F400.00
G1 X-54.4542 Y4.2768 F400.00
G1 X-54.4550 Y4.2232 F400.00
G1 X-54.4569 Y4.1789 F400.00
G1 X-54.4602 Y4.1323 F400.00
G1 X-54.4641 Y4.0910 F400.00
G1 X-54.4694 Y4.0469 F400.00
G1 X-54.4772 Y3.9939 F400.00
G1 X-54.4932 Y3.9095 F400.00
G1 X-54.5133 Y3.8260 F400.00
G1 X-54.5374 Y3.7435 F400.00
G1 X-54.5656 Y3.6624 F400.00
G1 X-54.5874 Y3.6071 F400.00
G1 X-54.6087 Y3.5579 F400.00
G1 X-54.6284 Y3.5156 F400.00
G1 X-54.6482 Y3.4759 F400.00
G1 X-54.6677 Y3.4392 F400.00
G1 X-54.6894 Y3.4005 F400.00
G1 X-54.7169 Y3.3545 F400.00
G1 X-54.7491 Y3.3045 F400.00
G1 X-54.7986 Y3.2343 F400.00
G1 X-54.8514 Y3.1666 F400.00
G1 X-54.9075 Y3.1016 F400.00
G1 X-54.9668 Y3.0393 F400.00
G1 X-55.0053 Y3.0020 F400.00
G1 X-55.0380 Y2.9720 F400.00
G1 X-55.0693 Y2.9447 F400.00
G1 X-55.1052 Y2.9149 F400.00
G1 X-55.1401 Y2.8875 F400.00
G1 X-55.1832 Y2.8555 F400.00
G1 X-55.2540 Y2.8072 F400.00
G1 X-55.3045 Y2.7757 F400.00
G1 X-55.3510 Y2.7489 F400.00
G1 X-55.3900 Y2.7277 F400.00
G1 X-55.4270 Y2.7088 F400.00
G1 X-55.4690 Y2.6887 F400.00
G1 X-55.5095 Y2.6706 F400.00
G1 X-55.5591 Y2.6500 F400.00
G1 X-55.6147 Y2.6290 F400.00
G1 X-55.6963 Y2.6021 F400.00
G1 X-55.7790 Y2.5792 F400.00
G1 X-55.8628 Y2.5604 F400.00
G1 X-55.9475 Y2.5457 F400.00
G1 X-56.0006 Y2.5386 F400.00
G1 X-56.0448 Y2.5340 F400.00
G1 X-56.0862 Y2.5307 F400.00
G1 X-56.1327 Y2.5282 F400.00
G1 X-56.1771 Y2.5270 F400.00
G1 X-56.2307 Y2.5269 F400.00
G1 X-56.3165 Y2.5303 F400.00
G1 X-56.3759 Y2.5352 F400.00
G1 X-56.4291 Y2.5413 F400.00
G1 X-56.4730 Y2.5475 F400.00
G1 X-56.5140 Y2.5544 F400.00
G1 X-56.5575 Y2.5628 F400.00
G1 X-56.6031 Y2.5728 F400.00
G1 X-56.6551 Y2.5858 F400.00
G1 X-56.7123 Y2.6021 F400.00
G1 X-56.7634 Y2.6185 F400.00
G1 X-56.8073 Y2.6339 F400.00
G1 X-58.2814 Y3.1866 F400.00
G1 X-58.3606 Y3.2185 F400.00
G1 X-59.7948 Y3.8377 F400.00
G1 X-59.8372 Y3.8567 F400.00
G1 X-61.3096 Y4.5795 F400.00
G1 X-61.3505 Y4.6014 F400.00
G1 X-62.7175 Y5.3575 F400.00
G1 X-62.7912 Y5.4006 F400.00
G1 X-64.1197 Y6.2225 F400.00
G1 X-64.1588 Y6.2474 F400.00
G1 X-65.5099 Y7.1774 F400.00
G1 X-65.5472 Y7.2051 F400.00
G1 X-66.7892 Y8.1525 F400.00
G1 X-66.8559 Y8.2060 F400.00
G1 X-68.0502 Y9.2129 F400.00
G1 X-68.0852 Y9.2433 F400.00
G1 X-69.2579 Y10.3336 F400.00
G1 X-69.2914 Y10.3657 F400.00
G1 X-70.4364 Y11.5402 F400.00
G1 X-70.4676 Y11.5745 F400.00
G1 X-71.5021 Y12.7450 F400.00
G1 X-71.5571 Y12.8103 F400.00
G1 X-72.5333 Y14.0299 F400.00
G1 X-72.5735 Y14.0820 F400.00
G1 X-73.5231 Y15.3956 F400.00
G1 X-73.5490 Y15.4341 F400.00
G1 X-74.4017 Y16.7430 F400.00
G1 X-74.4465 Y16.8157 F400.00
G1 X-75.2343 Y18.1647 F400.00
G1 X-75.2571 Y18.2050 F400.00
G1 X-76.0142 Y19.6601 F400.00
G1 X-76.0342 Y19.7020 F400.00
G1 X-76.6867 Y21.1214 F400.00
G1 X-76.7204 Y21.1998 F400.00
G1 X-77.3029 Y22.6493 F400.00
G1 X-77.3263 Y22.7109 F400.00
G1 X-77.8562 Y24.2426 F400.00
G1 X-77.8698 Y24.2869 F400.00
G1 X-78.3082 Y25.7863 F400.00
G1 X-78.3302 Y25.8689 F400.00
G1 X-78.6949 Y27.3879 F400.00
G1 X-78.7090 Y27.4523 F400.00
G1 X-79.0029 Y29.0064 F400.00
G1 X-79.0109 Y29.0521 F400.00
G1 X-79.2342 Y30.6576 F400.00
G1 X-79.2412 Y30.7229 F400.00
G1 X-79.3820 Y32.2983 F400.00
G1 X-79.3859 Y32.3641 F400.00
G1 X-79.4110 Y32.9862 F400.00
G0 Z3.0000 F400.00
G0 X-79.2649 Y37.9862 F400.00
G1 F400.00
G1 Z-2.0000 F400.00
G1 F400.00
G1 X-79.1722 Y38.8560 F400.00
G1 X-79.1640 Y38.9214 F400.00
G1 X-78.9200 Y40.4841 F400.00
G1 X-78.9086 Y40.5489 F400.00
G1 X-78.5886 Y42.0980 F400.00
G1 X-78.5786 Y42.1433 F400.00
G1 X-78.1789 Y43.6938 F400.00
G1 X-78.1612 Y43.7574 F400.00
G1 X-77.6918 Y45.2677 F400.00
G1 X-77.6774 Y45.3118 F400.00
G1 X-77.1284 Y46.8160 F400.00
G1 X-77.1119 Y46.8593 F400.00
G1 X-76.4745 Y48.3707 F400.00
G1 X-76.4550 Y48.4128 F400.00
G1 X-75.7700 Y49.8384 F400.00
G1 X-75.7397 Y49.8970 F400.00
G1 X-74.9762 Y51.3044 F400.00
G1 X-74.9527 Y51.3444 F400.00
G1 X-74.1422 Y52.6798 F400.00
G1 X-74.0961 Y52.7518 F400.00
G1 X-73.2213 Y54.0460 F400.00
G1 X-73.1717 Y54.1156 F400.00
G1 X-72.2348 Y55.3656 F400.00
G1 X-72.2065 Y55.4024 F400.00
G1 X-71.1852 Y56.6356 F400.00
G1 X-71.1551 Y56.6708 F400.00
G1 X-70.0748 Y57.8527 F400.00
G1 X-70.0430 Y57.8865 F400.00
G1 X-68.9063 Y59.0143 F400.00
G1 X-68.8587 Y59.0597 F400.00
G1 X-67.6826 Y60.1174 F400.00
G1 X-67.6476 Y60.1479 F400.00
G1 X-66.4064 Y61.1595 F400.00
G1 X-66.3701 Y61.1882 F400.00
G1 X-65.0810 Y62.1380 F400.00
G1 X-65.0432 Y62.1650 F400.00
G1 X-63.6765 Y63.0719 F400.00
G1 X-63.6370 Y63.0962 F400.00
G1 X-62.2609 Y63.9150 F400.00
G1 X-62.2203 Y63.9373 F400.00
G1 X-60.8059 Y64.6880 F400.00
G1 X-60.7642 Y64.7083 F400.00
G1 X-59.3149 Y65.3890 F400.00
G1 X-59.2723 Y65.4073 F400.00
G1 X-57.8278 Y66.0020 F400.00
G1 X-57.7480 Y66.0326 F400.00
G1 X-56.2392 Y66.5688 F400.00
G1 X-56.1950 Y66.5828 F400.00
G1 X-54.6619 Y67.0447 F400.00
G1 X-54.6171 Y67.0565 F400.00
G1 X-53.0632 Y67.4431 F400.00
G1 X-53.0178 Y67.4527 F400.00
G1 X-51.4854 Y67.7559 F400.00
G1 X-51.4012 Y67.7704 F400.00
G1 X-49.8558 Y67.9984 F400.00
G1 X-49.7710 Y68.0088 F400.00
G1 X-48.2162 Y68.1611 F400.00
G1 X-48.1700 Y68.1649 F400.00
G1 X-46.5707 Y68.2436 F400.00
G1 X-46.4853 Y68.2456 F400.00
G1 X-44.9232 Y68.2456 F400.00
G1 X-44.8768 Y68.2450 F400.00
G1 X-43.2775 Y68.1673 F400.00
G1 X-43.2312 Y68.1644 F400.00
G1 X-41.6376 Y68.0088 F400.00
G1 X-41.5915 Y68.0036 F400.00
G1 X-40.0073 Y67.7704 F400.00
G1 X-39.9616 Y67.7630 F400.00
G1 X-38.3907 Y67.4527 F400.00
G1 X-38.3453 Y67.4431 F400.00
G1 X-36.7537 Y67.0466 F400.00
G1 X-36.7091 Y67.0339 F400.00
G1 X-35.1762 Y66.5711 F400.00
G1 X-35.1323 Y66.5561 F400.00
G1 X-33.6605 Y66.0326 F400.00
G1 X-33.5807 Y66.0020 F400.00
G1 X-32.1362 Y65.4073 F400.00
G1 X-32.0580 Y65.3728 F400.00
G1 X-30.6443 Y64.7083 F400.00
G1 X-30.6026 Y64.6880 F400.00
G1 X-29.1882 Y63.9373 F400.00
G1 X-29.1138 Y63.8954 F400.00
G1 X-27.7715 Y63.0962 F400.00
G1 X-27.7320 Y63.0719 F400.00
G1 X-26.3976 Y62.1870 F400.00
G1 X-26.3593 Y62.1608 F400.00
G1 X-25.0696 Y61.2118 F400.00
G1 X-25.0327 Y61.1838 F400.00
G1 X-23.7909 Y60.1729 F400.00
G1 X-23.7406 Y60.1304 F400.00
G1 X-22.5643 Y59.0729 F400.00
G1 X-22.5303 Y59.0414 F400.00
G1 X-21.3929 Y57.9143 F400.00
G1 X-21.3604 Y57.8812 F400.00
G1 X-20.2794 Y56.7000 F400.00
G1 X-20.2486 Y56.6653 F400.00
G1 X-19.2266 Y55.4327 F400.00
G1 X-19.1975 Y55.3966 F400.00
G1 X-18.2137 Y54.0841 F400.00
G1 X-18.1872 Y54.0460 F400.00
G1 X-17.2910 Y52.7191 F400.00
G1 X-17.2664 Y52.6798 F400.00
G1 X-16.4360 Y51.3108 F400.00
G1 X-16.4133 Y51.2703 F400.00
G1 X-15.6596 Y49.8797 F400.00
G1 X-15.6300 Y49.8209 F400.00
G1 X-14.9370 Y48.3774 F400.00
G1 X-14.9184 Y48.3349 F400.00
G1 X-14.2967 Y46.8593 F400.00
G1 X-14.2801 Y46.8160 F400.00
G1 X-13.7312 Y45.3118 F400.00
G1 X-13.7168 Y45.2677 F400.00
G1 X-13.2473 Y43.7574 F400.00
G1 X-13.2296 Y43.6938 F400.00
G1 X-12.8299 Y42.1433 F400.00
G1 X-12.8199 Y42.0980 F400.00
G1 X-12.4999 Y40.5491 F400.00
G1 X-12.4885 Y40.4841 F400.00
G1 X-12.2445 Y38.9213 F400.00
G1 X-12.2363 Y38.8560 F400.00
G1 X-12.1436 Y37.9862 F400.00
G0 Z3.0000 F400.00
G0 X-11.9976 Y32.9862 F400.00
G1 F400.00
G1 Z-2.0000 F400.00
G1 F400.00
G1 X-12.0227 Y32.3641 F400.00
G1 X-12.0266 Y32.2983 F400.00
G1 X-12.1691 Y30.7035 F400.00
G1 X-12.1770 Y30.6380 F400.00
G1 X-12.3918 Y29.0907 F400.00
G1 X-12.4021 Y29.0256 F400.00
G1 X-12.7035 Y27.4331 F400.00
G1 X-12.7137 Y27.3879 F400.00
G1 X-13.0784 Y25.8689 F400.00
G1 X-13.1003 Y25.7863 F400.00
G1 X-13.5387 Y24.2869 F400.00
G1 X-13.5584 Y24.2240 F400.00
G1 X-14.0889 Y22.6926 F400.00
G1 X-14.1056 Y22.6493 F400.00
G1 X-14.6881 Y21.1998 F400.00
G1 X-14.7219 Y21.1214 F400.00
G1 X-15.3744 Y19.7020 F400.00
G1 X-15.3943 Y19.6601 F400.00
G1 X-16.1514 Y18.2050 F400.00
G1 X-16.1742 Y18.1647 F400.00
G1 X-16.9620 Y16.8157 F400.00
G1 X-17.0069 Y16.7430 F400.00
G1 X-17.8595 Y15.4341 F400.00
G1 X-17.8966 Y15.3795 F400.00
G1 X-18.8467 Y14.0665 F400.00
G1 X-18.8752 Y14.0299 F400.00
G1 X-19.8514 Y12.8103 F400.00
G1 X-19.9064 Y12.7450 F400.00
G1 X-20.9410 Y11.5745 F400.00
G1 X-20.9722 Y11.5402 F400.00
G1 X-22.1171 Y10.3657 F400.00
G1 X-22.1507 Y10.3336 F400.00
G1 X-23.2944 Y9.2696 F400.00
G1 X-23.3584 Y9.2129 F400.00
G1 X-24.5527 Y8.2060 F400.00
G1 X-24.5886 Y8.1766 F400.00
G1 X-25.8927 Y7.1817 F400.00
G1 X-25.9305 Y7.1549 F400.00
G1 X-27.2173 Y6.2692 F400.00
G1 X-27.2888 Y6.2225 F400.00
G1 X-28.6173 Y5.4006 F400.00
G1 X-28.6571 Y5.3768 F400.00
G1 X-30.0925 Y4.5829 F400.00
G1 X-30.1338 Y4.5619 F400.00
G1 X-31.5361 Y3.8735 F400.00
G1 X-31.6137 Y3.8377 F400.00
G1 X-33.0479 Y3.2185 F400.00
G1 X-33.1271 Y3.1866 F400.00
G0 Z3.0000 F400.00
M5
G0 Z3.0000 F400.00
G0 Z12.70 F400.00
G0 X0.0 Y0.0 F400.00

M02