;Marlin(Repetier) G-CODE GENERATED BY FLATCAM v8.96 - www.flatcam.org - Version Date:    2019/08/23

;Name: f_comp-B_Cu.gbr_iso_cnc
;Type: G-code from Geometry
;Units: MM

;Created on Thursday, 03 October 2019 at 17:16

;TOOL DIAMETER: 0.15 mm

;Feedrate: 400.0 mm/min
;Feedrate_Z: 400.0 mm/min
;Feedrate rapids 400.0 mm/min

;Z_Cut: -0.3 mm
;Z_Move: 3.0 mm
;Z Toolchange: 12.7 mm
;X,Y Toolchange: 0.0000, 0.0000 mm
;Z Start: None mm
;Z End: 12.7 mm
;Steps per circle: 128
;Postprocessor Geometry: marlin

;X range:  -73.4560 ...  -18.2056  mm
;Y range:   12.7018 ...   65.3520  mm

;Spindle Speed: None RPM


G21
G90

G1 F400.00
G0 Z3.0000 F400.00

M3
G0 X-27.0558 Y14.2777 F400.00
G1 F400.00
G1 Z-0.3000 F400.00
G1 F400.00
G1 X-27.0539 Y14.1995 F400.00
G1 X-27.0482 Y14.1224 F400.00
G1 X-27.0388 Y14.0457 F400.00
G1 X-27.0255 Y13.9695 F400.00
G1 X-27.0086 Y13.8941 F400.00
G1 X-26.9880 Y13.8196 F400.00
G1 X-26.9637 Y13.7462 F400.00
G1 X-26.9359 Y13.6741 F400.00
G1 X-26.9046 Y13.6034 F400.00
G1 X-26.8698 Y13.5344 F400.00
G1 X-26.8317 Y13.4671 F400.00
G1 X-26.7904 Y13.4018 F400.00
G1 X-26.7459 Y13.3386 F400.00
G1 X-26.6983 Y13.2776 F400.00
G1 X-26.6478 Y13.2191 F400.00
G1 X-26.5945 Y13.1631 F400.00
G1 X-26.5385 Y13.1098 F400.00
G1 X-26.4800 Y13.0593 F400.00
G1 X-26.4190 Y13.0117 F400.00
G1 X-26.3558 Y12.9672 F400.00
G1 X-26.2905 Y12.9259 F400.00
G1 X-26.2232 Y12.8878 F400.00
G1 X-26.1542 Y12.8530 F400.00
G1 X-26.0835 Y12.8217 F400.00
G1 X-26.0114 Y12.7939 F400.00
G1 X-25.9380 Y12.7696 F400.00
G1 X-25.8635 Y12.7490 F400.00
G1 X-25.7881 Y12.7321 F400.00
G1 X-25.7119 Y12.7188 F400.00
G1 X-25.6352 Y12.7094 F400.00
G1 X-25.5581 Y12.7037 F400.00
G1 X-25.4808 Y12.7018 F400.00
G1 X-25.4035 Y12.7037 F400.00
G1 X-25.3264 Y12.7094 F400.00
G1 X-25.2497 Y12.7188 F400.00
G1 X-25.1735 Y12.7321 F400.00
G1 X-25.0981 Y12.7490 F400.00
G1 X-25.0236 Y12.7696 F400.00
G1 X-24.9502 Y12.7939 F400.00
G1 X-24.8781 Y12.8217 F400.00
G1 X-24.8074 Y12.8530 F400.00
G1 X-24.7384 Y12.8878 F400.00
G1 X-24.6711 Y12.9259 F400.00
G1 X-24.6058 Y12.9672 F400.00
G1 X-24.5426 Y13.0117 F400.00
G1 X-24.4816 Y13.0593 F400.00
G1 X-24.4231 Y13.1098 F400.00
G1 X-24.3671 Y13.1631 F400.00
G1 X-24.3138 Y13.2191 F400.00
G1 X-24.2633 Y13.2776 F400.00
G1 X-24.2157 Y13.3386 F400.00
G1 X-24.1712 Y13.4018 F400.00
G1 X-24.1299 Y13.4671 F400.00
G1 X-24.0918 Y13.5344 F400.00
G1 X-24.0570 Y13.6034 F400.00
G1 X-24.0257 Y13.6741 F400.00
G1 X-23.9979 Y13.7462 F400.00
G1 X-23.9736 Y13.8196 F400.00
G1 X-23.9530 Y13.8941 F400.00
G1 X-23.9361 Y13.9695 F400.00
G1 X-23.9228 Y14.0457 F400.00
G1 X-23.9134 Y14.1224 F400.00
G1 X-23.9077 Y14.1995 F400.00
G1 X-23.9058 Y14.2768 F400.00
G1 X-23.9077 Y14.3541 F400.00
G1 X-23.9134 Y14.4312 F400.00
G1 X-23.9228 Y14.5079 F400.00
G1 X-23.9361 Y14.5841 F400.00
G1 X-23.9530 Y14.6595 F400.00
G1 X-23.9736 Y14.7340 F400.00
G1 X-23.9979 Y14.8074 F400.00
G1 X-24.0257 Y14.8795 F400.00
G1 X-24.0570 Y14.9502 F400.00
G1 X-24.0918 Y15.0192 F400.00
G1 X-24.1299 Y15.0865 F400.00
G1 X-24.1712 Y15.1518 F400.00
G1 X-24.2157 Y15.2150 F400.00
G1 X-24.2633 Y15.2760 F400.00
G1 X-24.3138 Y15.3345 F400.00
G1 X-24.3671 Y15.3905 F400.00
G1 X-24.4231 Y15.4438 F400.00
G1 X-24.4816 Y15.4943 F400.00
G1 X-24.5426 Y15.5419 F400.00
G1 X-24.6058 Y15.5864 F400.00
G1 X-24.6711 Y15.6277 F400.00
G1 X-24.7384 Y15.6658 F400.00
G1 X-24.8074 Y15.7006 F400.00
G1 X-24.8781 Y15.7319 F400.00
G1 X-24.9502 Y15.7597 F400.00
G1 X-25.0236 Y15.7840 F400.00
G1 X-25.0981 Y15.8046 F400.00
G1 X-25.1735 Y15.8215 F400.00
G1 X-25.2497 Y15.8348 F400.00
G1 X-25.3264 Y15.8442 F400.00
G1 X-25.4035 Y15.8499 F400.00
G1 X-25.4808 Y15.8518 F400.00
G1 X-25.5581 Y15.8499 F400.00
G1 X-25.6352 Y15.8442 F400.00
G1 X-25.7119 Y15.8348 F400.00
G1 X-25.7881 Y15.8215 F400.00
G1 X-25.8635 Y15.8046 F400.00
G1 X-25.9380 Y15.7840 F400.00
G1 X-26.0114 Y15.7597 F400.00
G1 X-26.0835 Y15.7319 F400.00
G1 X-26.1542 Y15.7006 F400.00
G1 X-26.2232 Y15.6658 F400.00
G1 X-26.2905 Y15.6277 F400.00
G1 X-26.3558 Y15.5864 F400.00
G1 X-26.4190 Y15.5419 F400.00
G1 X-26.4800 Y15.4943 F400.00
G1 X-26.5385 Y15.4438 F400.00
G1 X-26.5945 Y15.3905 F400.00
G1 X-26.6478 Y15.3345 F400.00
G1 X-26.6983 Y15.2760 F400.00
G1 X-26.7459 Y15.2150 F400.00
G1 X-26.7904 Y15.1518 F400.00
G1 X-26.8317 Y15.0865 F400.00
G1 X-26.8698 Y15.0192 F400.00
G1 X-26.9046 Y14.9502 F400.00
G1 X-26.9359 Y14.8795 F400.00
G1 X-26.9637 Y14.8074 F400.00
G1 X-26.9880 Y14.7340 F400.00
G1 X-27.0086 Y14.6595 F400.00
G1 X-27.0255 Y14.5841 F400.00
G1 X-27.0388 Y14.5079 F400.00
G1 X-27.0482 Y14.4312 F400.00
G1 X-27.0539 Y14.3541 F400.00
G1 X-27.0558 Y14.2777 F400.00
G0 Z3.0000 F400.00
G0 X-28.7626 Y31.9618 F400.00
G1 F400.00
G1 Z-0.3000 F400.00
G1 F400.00
G1 X-28.7179 Y31.9629 F400.00
G1 X-28.6750 Y31.9660 F400.00
G1 X-28.6324 Y31.9713 F400.00
G1 X-28.5901 Y31.9786 F400.00
G1 X-28.5482 Y31.9880 F400.00
G1 X-28.5068 Y31.9995 F400.00
G1 X-28.4660 Y32.0129 F400.00
G1 X-28.4260 Y32.0284 F400.00
G1 X-28.3867 Y32.0458 F400.00
G1 X-28.3483 Y32.0651 F400.00
G1 X-28.3110 Y32.0863 F400.00
G1 X-28.2747 Y32.1093 F400.00
G1 X-28.2396 Y32.1340 F400.00
G1 X-28.2057 Y32.1604 F400.00
G1 X-28.1732 Y32.1885 F400.00
G1 X-28.1421 Y32.2181 F400.00
G1 X-28.1125 Y32.2492 F400.00
G1 X-28.0844 Y32.2817 F400.00
G1 X-28.0580 Y32.3156 F400.00
G1 X-28.0333 Y32.3507 F400.00
G1 X-28.0103 Y32.3870 F400.00
G1 X-27.9891 Y32.4243 F400.00
G1 X-27.9698 Y32.4627 F400.00
G1 X-27.9524 Y32.5020 F400.00
G1 X-27.9369 Y32.5420 F400.00
G1 X-27.9235 Y32.5828 F400.00
G1 X-27.9120 Y32.6242 F400.00
G1 X-27.9026 Y32.6661 F400.00
G1 X-27.8953 Y32.7084 F400.00
G1 X-27.8900 Y32.7510 F400.00
G1 X-27.8869 Y32.7939 F400.00
G1 X-27.8858 Y32.8368 F400.00
G1 X-27.8869 Y32.8797 F400.00
G1 X-27.8900 Y32.9226 F400.00
G1 X-27.8953 Y32.9652 F400.00
G1 X-27.9026 Y33.0075 F400.00
G1 X-27.9120 Y33.0494 F400.00
G1 X-27.9235 Y33.0908 F400.00
G1 X-27.9369 Y33.1316 F400.00
G1 X-27.9524 Y33.1716 F400.00
G1 X-27.9698 Y33.2109 F400.00
G1 X-27.9891 Y33.2493 F400.00
G1 X-28.0103 Y33.2866 F400.00
G1 X-28.0333 Y33.3229 F400.00
G1 X-28.0580 Y33.3580 F400.00
G1 X-28.0844 Y33.3919 F400.00
G1 X-28.1125 Y33.4244 F400.00
G1 X-28.1421 Y33.4555 F400.00
G1 X-28.1732 Y33.4851 F400.00
G1 X-28.2057 Y33.5132 F400.00
G1 X-28.2396 Y33.5396 F400.00
G1 X-28.2747 Y33.5643 F400.00
G1 X-28.3110 Y33.5873 F400.00
G1 X-28.3483 Y33.6085 F400.00
G1 X-28.3867 Y33.6278 F400.00
G1 X-28.4260 Y33.6452 F400.00
G1 X-28.4660 Y33.6607 F400.00
G1 X-28.5068 Y33.6741 F400.00
G1 X-28.5482 Y33.6856 F400.00
G1 X-28.5901 Y33.6950 F400.00
G1 X-28.6324 Y33.7023 F400.00
G1 X-28.6750 Y33.7076 F400.00
G1 X-28.7179 Y33.7107 F400.00
G1 X-28.7608 Y33.7118 F400.00
G1 X-28.8037 Y33.7107 F400.00
G1 X-28.8466 Y33.7076 F400.00
G1 X-28.8892 Y33.7023 F400.00
G1 X-28.9315 Y33.6950 F400.00
G1 X-28.9734 Y33.6856 F400.00
G1 X-29.0148 Y33.6741 F400.00
G1 X-29.0556 Y33.6607 F400.00
G1 X-29.0956 Y33.6452 F400.00
G1 X-29.1349 Y33.6278 F400.00
G1 X-29.1733 Y33.6085 F400.00
G1 X-29.2106 Y33.5873 F400.00
G1 X-29.2469 Y33.5643 F400.00
G1 X-29.2820 Y33.5396 F400.00
G1 X-29.3159 Y33.5132 F400.00
G1 X-29.3484 Y33.4851 F400.00
G1 X-29.3795 Y33.4555 F400.00
G1 X-29.4091 Y33.4244 F400.00
G1 X-29.4372 Y33.3919 F400.00
G1 X-29.4636 Y33.3580 F400.00
G1 X-29.4883 Y33.3229 F400.00
G1 X-29.5113 Y33.2866 F400.00
G1 X-29.5325 Y33.2493 F400.00
G1 X-29.5518 Y33.2109 F400.00
G1 X-29.5692 Y33.1716 F400.00
G1 X-29.5847 Y33.1316 F400.00
G1 X-29.5981 Y33.0908 F400.00
G1 X-29.6096 Y33.0494 F400.00
G1 X-29.6190 Y33.0075 F400.00
G1 X-29.6263 Y32.9652 F400.00
G1 X-29.6316 Y32.9226 F400.00
G1 X-29.6347 Y32.8797 F400.00
G1 X-29.6358 Y32.8377 F400.00
G1 X-29.6347 Y32.7939 F400.00
G1 X-29.6316 Y32.7510 F400.00
G1 X-29.6263 Y32.7084 F400.00
G1 X-29.6190 Y32.6661 F400.00
G1 X-29.6096 Y32.6242 F400.00
G1 X-29.5981 Y32.5828 F400.00
G1 X-29.5847 Y32.5420 F400.00
G1 X-29.5692 Y32.5020 F400.00
G1 X-29.5518 Y32.4627 F400.00
G1 X-29.5325 Y32.4243 F400.00
G1 X-29.5113 Y32.3870 F400.00
G1 X-29.4883 Y32.3507 F400.00
G1 X-29.4636 Y32.3156 F400.00
G1 X-29.4372 Y32.2817 F400.00
G1 X-29.4091 Y32.2492 F400.00
G1 X-29.3795 Y32.2181 F400.00
G1 X-29.3484 Y32.1885 F400.00
G1 X-29.3159 Y32.1604 F400.00
G1 X-29.2820 Y32.1340 F400.00
G1 X-29.2469 Y32.1093 F400.00
G1 X-29.2106 Y32.0863 F400.00
G1 X-29.1733 Y32.0651 F400.00
G1 X-29.1349 Y32.0458 F400.00
G1 X-29.0956 Y32.0284 F400.00
G1 X-29.0556 Y32.0129 F400.00
G1 X-29.0148 Y31.9995 F400.00
G1 X-28.9734 Y31.9880 F400.00
G1 X-28.9315 Y31.9786 F400.00
G1 X-28.8892 Y31.9713 F400.00
G1 X-28.8466 Y31.9660 F400.00
G1 X-28.8037 Y31.9629 F400.00
G1 X-28.7626 Y31.9618 F400.00
G0 Z3.0000 F400.00
G0 X-27.0762 Y32.6535 F400.00
G1 F400.00
G1 Z-0.3000 F400.00
G1 F400.00
G1 X-30.8776 Y28.8520 F400.00
G1 X-61.2308 Y28.8520 F400.00
G1 X-61.2541 Y28.8514 F400.00
G1 X-61.2755 Y28.8499 F400.00
G1 X-61.3005 Y28.8469 F400.00
G1 X-61.3235 Y28.8429 F400.00
G1 X-61.3445 Y28.8382 F400.00
G1 X-61.3687 Y28.8315 F400.00
G1 X-61.3909 Y28.8242 F400.00
G1 X-61.4143 Y28.8151 F400.00
G1 X-61.4340 Y28.8064 F400.00
G1 X-61.4532 Y28.7967 F400.00
G1 X-61.4751 Y28.7844 F400.00
G1 X-61.4963 Y28.7709 F400.00
G1 X-61.5139 Y28.7585 F400.00
G1 X-61.5308 Y28.7453 F400.00
G1 X-61.5499 Y28.7289 F400.00
G1 X-61.5668 Y28.7128 F400.00
G1 X-69.6276 Y20.6520 F400.00
G1 X-69.9558 Y20.6520 F400.00
G1 X-69.9558 Y21.0268 F400.00
G1 X-69.9566 Y21.0378 F400.00
G1 X-69.9602 Y21.0521 F400.00
G1 X-69.9647 Y21.0622 F400.00
G1 X-69.9706 Y21.0715 F400.00
G1 X-69.9778 Y21.0798 F400.00
G1 X-69.9861 Y21.0870 F400.00
G1 X-69.9954 Y21.0929 F400.00
G1 X-70.0055 Y21.0974 F400.00
G1 X-70.0162 Y21.1004 F400.00
G1 X-70.0308 Y21.1018 F400.00
G1 X-71.7308 Y21.1018 F400.00
G1 X-71.7454 Y21.1004 F400.00
G1 X-71.7595 Y21.0961 F400.00
G1 X-71.7694 Y21.0911 F400.00
G1 X-71.7812 Y21.0824 F400.00
G1 X-71.7910 Y21.0715 F400.00
G1 X-71.7986 Y21.0589 F400.00
G1 X-71.8036 Y21.0450 F400.00
G1 X-71.8050 Y21.0378 F400.00
G1 X-71.8058 Y21.0268 F400.00
G1 X-71.8058 Y19.3268 F400.00
G1 X-71.8050 Y19.3158 F400.00
G1 X-71.8026 Y19.3050 F400.00
G1 X-71.7986 Y19.2947 F400.00
G1 X-71.7932 Y19.2851 F400.00
G1 X-71.7838 Y19.2738 F400.00
G1 X-71.7755 Y19.2666 F400.00
G1 X-71.7662 Y19.2607 F400.00
G1 X-71.7561 Y19.2562 F400.00
G1 X-71.7454 Y19.2532 F400.00
G1 X-71.7345 Y19.2519 F400.00
G1 X-70.0308 Y19.2518 F400.00
G1 X-70.0162 Y19.2532 F400.00
G1 X-70.0055 Y19.2562 F400.00
G1 X-69.9954 Y19.2607 F400.00
G1 X-69.9861 Y19.2666 F400.00
G1 X-69.9778 Y19.2738 F400.00
G1 X-69.9706 Y19.2821 F400.00
G1 X-69.9647 Y19.2914 F400.00
G1 X-69.9602 Y19.3015 F400.00
G1 X-69.9566 Y19.3158 F400.00
G1 X-69.9558 Y19.3268 F400.00
G1 X-69.9558 Y19.7016 F400.00
G1 X-69.4299 Y19.7016 F400.00
G1 X-69.4056 Y19.7023 F400.00
G1 X-69.3842 Y19.7039 F400.00
G1 X-69.3629 Y19.7065 F400.00
G1 X-69.3381 Y19.7107 F400.00
G1 X-69.3136 Y19.7163 F400.00
G1 X-69.2929 Y19.7221 F400.00
G1 X-69.2725 Y19.7288 F400.00
G1 X-69.2473 Y19.7385 F400.00
G1 X-69.2276 Y19.7472 F400.00
G1 X-69.2084 Y19.7569 F400.00
G1 X-69.1865 Y19.7692 F400.00
G1 X-69.1653 Y19.7827 F400.00
G1 X-69.1477 Y19.7951 F400.00
G1 X-69.1308 Y19.8083 F400.00
G1 X-69.1117 Y19.8247 F400.00
G1 X-69.0948 Y19.8408 F400.00
G1 X-61.0340 Y27.9016 F400.00
G1 X-30.6808 Y27.9016 F400.00
G1 X-30.6556 Y27.9023 F400.00
G1 X-30.6342 Y27.9039 F400.00
G1 X-30.6111 Y27.9067 F400.00
G1 X-30.5863 Y27.9111 F400.00
G1 X-30.5653 Y27.9158 F400.00
G1 X-30.5429 Y27.9221 F400.00
G1 X-30.5207 Y27.9294 F400.00
G1 X-30.5007 Y27.9371 F400.00
G1 X-30.4760 Y27.9480 F400.00
G1 X-30.4568 Y27.9577 F400.00
G1 X-30.4365 Y27.9692 F400.00
G1 X-30.4168 Y27.9817 F400.00
G1 X-30.3992 Y27.9940 F400.00
G1 X-30.3779 Y28.0107 F400.00
G1 X-30.3617 Y28.0247 F400.00
G1 X-30.3454 Y28.0401 F400.00
G1 X-26.4041 Y31.9814 F400.00
G1 X-26.3492 Y31.9713 F400.00
G1 X-26.3047 Y31.9659 F400.00
G1 X-26.2637 Y31.9629 F400.00
G1 X-26.2226 Y31.9618 F400.00
G1 X-26.1779 Y31.9629 F400.00
G1 X-26.1350 Y31.9660 F400.00
G1 X-26.0906 Y31.9716 F400.00
G1 X-26.0501 Y31.9786 F400.00
G1 X-26.0100 Y31.9876 F400.00
G1 X-25.9668 Y31.9995 F400.00
G1 X-25.9260 Y32.0129 F400.00
G1 X-25.8843 Y32.0291 F400.00
G1 X-25.8467 Y32.0458 F400.00
G1 X-25.8100 Y32.0643 F400.00
G1 X-25.7710 Y32.0863 F400.00
G1 X-25.7347 Y32.1093 F400.00
G1 X-25.6981 Y32.1351 F400.00
G1 X-25.6657 Y32.1604 F400.00
G1 X-25.6346 Y32.1872 F400.00
G1 X-25.6034 Y32.2168 F400.00
G1 X-25.5725 Y32.2492 F400.00
G1 X-25.5433 Y32.2831 F400.00
G1 X-25.5180 Y32.3156 F400.00
G1 X-25.4943 Y32.3492 F400.00
G1 X-25.4703 Y32.3870 F400.00
G1 X-25.4483 Y32.4260 F400.00
G1 X-25.4298 Y32.4627 F400.00
G1 X-25.4131 Y32.5003 F400.00
G1 X-25.3969 Y32.5420 F400.00
G1 X-25.3835 Y32.5828 F400.00
G1 X-25.3716 Y32.6260 F400.00
G1 X-25.3626 Y32.6661 F400.00
G1 X-25.3556 Y32.7066 F400.00
G1 X-25.3500 Y32.7510 F400.00
G1 X-25.3469 Y32.7939 F400.00
G1 X-25.3458 Y32.8368 F400.00
G1 X-25.3470 Y32.8816 F400.00
G1 X-25.3500 Y32.9226 F400.00
G1 X-25.3550 Y32.9634 F400.00
G1 X-25.3626 Y33.0075 F400.00
G1 X-25.3720 Y33.0494 F400.00
G1 X-25.3835 Y33.0908 F400.00
G1 X-25.3969 Y33.1316 F400.00
G1 X-25.4124 Y33.1716 F400.00
G1 X-25.4298 Y33.2109 F400.00
G1 X-25.4491 Y33.2493 F400.00
G1 X-25.4703 Y33.2866 F400.00
G1 X-25.4933 Y33.3229 F400.00
G1 X-25.5180 Y33.3580 F400.00
G1 X-25.5444 Y33.3919 F400.00
G1 X-25.5725 Y33.4244 F400.00
G1 X-25.6021 Y33.4555 F400.00
G1 X-25.6332 Y33.4851 F400.00
G1 X-25.6657 Y33.5132 F400.00
G1 X-25.6996 Y33.5396 F400.00
G1 X-25.7347 Y33.5643 F400.00
G1 X-25.7710 Y33.5873 F400.00
G1 X-25.8083 Y33.6085 F400.00
G1 X-25.8467 Y33.6278 F400.00
G1 X-25.8860 Y33.6452 F400.00
G1 X-25.9260 Y33.6607 F400.00
G1 X-25.9668 Y33.6741 F400.00
G1 X-26.0082 Y33.6856 F400.00
G1 X-26.0501 Y33.6950 F400.00
G1 X-26.0924 Y33.7023 F400.00
G1 X-26.1350 Y33.7076 F400.00
G1 X-26.1779 Y33.7107 F400.00
G1 X-26.2208 Y33.7118 F400.00
G1 X-26.2637 Y33.7107 F400.00
G1 X-26.3066 Y33.7076 F400.00
G1 X-26.3492 Y33.7023 F400.00
G1 X-26.3915 Y33.6950 F400.00
G1 X-26.4334 Y33.6856 F400.00
G1 X-26.4748 Y33.6741 F400.00
G1 X-26.5156 Y33.6607 F400.00
G1 X-26.5556 Y33.6452 F400.00
G1 X-26.5949 Y33.6278 F400.00
G1 X-26.6333 Y33.6085 F400.00
G1 X-26.6706 Y33.5873 F400.00
G1 X-26.7069 Y33.5643 F400.00
G1 X-26.7420 Y33.5396 F400.00
G1 X-26.7759 Y33.5132 F400.00
G1 X-26.8084 Y33.4851 F400.00
G1 X-26.8395 Y33.4555 F400.00
G1 X-26.8691 Y33.4244 F400.00
G1 X-26.8972 Y33.3919 F400.00
G1 X-26.9236 Y33.3580 F400.00
G1 X-26.9483 Y33.3229 F400.00
G1 X-26.9713 Y33.2866 F400.00
G1 X-26.9925 Y33.2493 F400.00
G1 X-27.0118 Y33.2109 F400.00
G1 X-27.0292 Y33.1716 F400.00
G1 X-27.0447 Y33.1316 F400.00
G1 X-27.0581 Y33.0908 F400.00
G1 X-27.0696 Y33.0494 F400.00
G1 X-27.0790 Y33.0075 F400.00
G1 X-27.0863 Y32.9652 F400.00
G1 X-27.0916 Y32.9226 F400.00
G1 X-27.0947 Y32.8797 F400.00
G1 X-27.0958 Y32.8359 F400.00
G1 X-27.0947 Y32.7939 F400.00
G1 X-27.0916 Y32.7510 F400.00
G1 X-27.0863 Y32.7084 F400.00
G1 X-27.0762 Y32.6535 F400.00
G0 Z3.0000 F400.00
G0 X-33.8426 Y31.9618 F400.00
G1 F400.00
G1 Z-0.3000 F400.00
G1 F400.00
G1 X-33.7979 Y31.9629 F400.00
G1 X-33.7550 Y31.9660 F400.00
G1 X-33.7124 Y31.9713 F400.00
G1 X-33.6701 Y31.9786 F400.00
G1 X-33.6282 Y31.9880 F400.00
G1 X-33.5868 Y31.9995 F400.00
G1 X-33.5460 Y32.0129 F400.00
G1 X-33.5060 Y32.0284 F400.00
G1 X-33.4667 Y32.0458 F400.00
G1 X-33.4283 Y32.0651 F400.00
G1 X-33.3910 Y32.0863 F400.00
G1 X-33.3547 Y32.1093 F400.00
G1 X-33.3196 Y32.1340 F400.00
G1 X-33.2857 Y32.1604 F400.00
G1 X-33.2532 Y32.1885 F400.00
G1 X-33.2221 Y32.2181 F400.00
G1 X-33.1925 Y32.2492 F400.00
G1 X-33.1644 Y32.2817 F400.00
G1 X-33.1380 Y32.3156 F400.00
G1 X-33.1133 Y32.3507 F400.00
G1 X-33.0903 Y32.3870 F400.00
G1 X-33.0691 Y32.4243 F400.00
G1 X-33.0498 Y32.4627 F400.00
G1 X-33.0324 Y32.5020 F400.00
G1 X-33.0169 Y32.5420 F400.00
G1 X-33.0035 Y32.5828 F400.00
G1 X-32.9920 Y32.6242 F400.00
G1 X-32.9826 Y32.6661 F400.00
G1 X-32.9753 Y32.7084 F400.00
G1 X-32.9700 Y32.7510 F400.00
G1 X-32.9669 Y32.7939 F400.00
G1 X-32.9658 Y32.8368 F400.00
G1 X-32.9669 Y32.8797 F400.00
G1 X-32.9700 Y32.9226 F400.00
G1 X-32.9753 Y32.9652 F400.00
G1 X-32.9826 Y33.0075 F400.00
G1 X-32.9920 Y33.0494 F400.00
G1 X-33.0035 Y33.0908 F400.00
G1 X-33.0169 Y33.1316 F400.00
G1 X-33.0324 Y33.1716 F400.00
