;Marlin(Repetier) G-CODE GENERATED BY FLATCAM v8.96 - www.flatcam.org - Version Date:    2019/08/23

;Name: f_comp-F_Cu.gbr_iso_cnc
;Type: G-code from Geometry
;Units: MM

;Created on Thursday, 03 October 2019 at 17:20

;TOOL DIAMETER: 0.15 mm

;Feedrate: 400.0 mm/min
;Feedrate_Z: 400.0 mm/min
;Feedrate rapids 400.0 mm/min

;Z_Cut: -0.3 mm
;Z_Move: 3.0 mm
;Z Toolchange: 12.7 mm
;X,Y Toolchange: 0.0000, 0.0000 mm
;Z Start: None mm
;Z End: 12.7 mm
;Steps per circle: 128
;Postprocessor Geometry: marlin

;X range:   17.9056 ...   76.6223  mm
;Y range:   12.7018 ...   64.3922  mm

;Spindle Speed: None RPM


G21
G90

G1 F400.00
G0 Z3.0000 F400.00

M3
G0 X27.0558 Y14.2777 F400.00
G1 F400.00
G1 Z-0.3000 F400.00
G1 F400.00
G1 X27.0539 Y14.3541 F400.00
G1 X27.0482 Y14.4312 F400.00
G1 X27.0388 Y14.5079 F400.00
G1 X27.0255 Y14.5841 F400.00
G1 X27.0086 Y14.6595 F400.00
G1 X26.9880 Y14.7340 F400.00
G1 X26.9637 Y14.8074 F400.00
G1 X26.9359 Y14.8795 F400.00
G1 X26.9046 Y14.9502 F400.00
G1 X26.8698 Y15.0192 F400.00
G1 X26.8317 Y15.0865 F400.00
G1 X26.7904 Y15.1518 F400.00
G1 X26.7459 Y15.2150 F400.00
G1 X26.6983 Y15.2760 F400.00
G1 X26.6478 Y15.3345 F400.00
G1 X26.5945 Y15.3905 F400.00
G1 X26.5385 Y15.4438 F400.00
G1 X26.4800 Y15.4943 F400.00
G1 X26.4190 Y15.5419 F400.00
G1 X26.3558 Y15.5864 F400.00
G1 X26.2905 Y15.6277 F400.00
G1 X26.2232 Y15.6658 F400.00
G1 X26.1542 Y15.7006 F400.00
G1 X26.0835 Y15.7319 F400.00
G1 X26.0114 Y15.7597 F400.00
G1 X25.9380 Y15.7840 F400.00
G1 X25.8635 Y15.8046 F400.00
G1 X25.7881 Y15.8215 F400.00
G1 X25.7119 Y15.8348 F400.00
G1 X25.6352 Y15.8442 F400.00
G1 X25.5581 Y15.8499 F400.00
G1 X25.4808 Y15.8518 F400.00
G1 X25.4035 Y15.8499 F400.00
G1 X25.3264 Y15.8442 F400.00
G1 X25.2497 Y15.8348 F400.00
G1 X25.1735 Y15.8215 F400.00
G1 X25.0981 Y15.8046 F400.00
G1 X25.0236 Y15.7840 F400.00
G1 X24.9502 Y15.7597 F400.00
G1 X24.8781 Y15.7319 F400.00
G1 X24.8074 Y15.7006 F400.00
G1 X24.7384 Y15.6658 F400.00
G1 X24.6711 Y15.6277 F400.00
G1 X24.6058 Y15.5864 F400.00
G1 X24.5426 Y15.5419 F400.00
G1 X24.4816 Y15.4943 F400.00
G1 X24.4231 Y15.4438 F400.00
G1 X24.3671 Y15.3905 F400.00
G1 X24.3138 Y15.3345 F400.00
G1 X24.2633 Y15.2760 F400.00
G1 X24.2157 Y15.2150 F400.00
G1 X24.1712 Y15.1518 F400.00
G1 X24.1299 Y15.0865 F400.00
G1 X24.0918 Y15.0192 F400.00
G1 X24.0570 Y14.9502 F400.00
G1 X24.0257 Y14.8795 F400.00
G1 X23.9979 Y14.8074 F400.00
G1 X23.9736 Y14.7340 F400.00
G1 X23.9530 Y14.6595 F400.00
G1 X23.9361 Y14.5841 F400.00
G1 X23.9228 Y14.5079 F400.00
G1 X23.9134 Y14.4312 F400.00
G1 X23.9077 Y14.3541 F400.00
G1 X23.9058 Y14.2768 F400.00
G1 X23.9077 Y14.1995 F400.00
G1 X23.9134 Y14.1224 F400.00
G1 X23.9228 Y14.0457 F400.00
G1 X23.9361 Y13.9695 F400.00
G1 X23.9530 Y13.8941 F400.00
G1 X23.9736 Y13.8196 F400.00
G1 X23.9979 Y13.7462 F400.00
G1 X24.0257 Y13.6741 F400.00
G1 X24.0570 Y13.6034 F400.00
G1 X24.0918 Y13.5344 F400.00
G1 X24.1299 Y13.4671 F400.00
G1 X24.1712 Y13.4018 F400.00
G1 X24.2157 Y13.3386 F400.00
G1 X24.2633 Y13.2776 F400.00
G1 X24.3138 Y13.2191 F400.00
G1 X24.3671 Y13.1631 F400.00
G1 X24.4231 Y13.1098 F400.00
G1 X24.4816 Y13.0593 F400.00
G1 X24.5426 Y13.0117 F400.00
G1 X24.6058 Y12.9672 F400.00
G1 X24.6711 Y12.9259 F400.00
G1 X24.7384 Y12.8878 F400.00
G1 X24.8074 Y12.8530 F400.00
G1 X24.8781 Y12.8217 F400.00
G1 X24.9502 Y12.7939 F400.00
G1 X25.0236 Y12.7696 F400.00
G1 X25.0981 Y12.7490 F400.00
G1 X25.1735 Y12.7321 F400.00
G1 X25.2497 Y12.7188 F400.00
G1 X25.3264 Y12.7094 F400.00
G1 X25.4035 Y12.7037 F400.00
G1 X25.4808 Y12.7018 F400.00
G1 X25.5581 Y12.7037 F400.00
G1 X25.6352 Y12.7094 F400.00
G1 X25.7119 Y12.7188 F400.00
G1 X25.7881 Y12.7321 F400.00
G1 X25.8635 Y12.7490 F400.00
G1 X25.9380 Y12.7696 F400.00
G1 X26.0114 Y12.7939 F400.00
G1 X26.0835 Y12.8217 F400.00
G1 X26.1542 Y12.8530 F400.00
G1 X26.2232 Y12.8878 F400.00
G1 X26.2905 Y12.9259 F400.00
G1 X26.3558 Y12.9672 F400.00
G1 X26.4190 Y13.0117 F400.00
G1 X26.4800 Y13.0593 F400.00
G1 X26.5385 Y13.1098 F400.00
G1 X26.5945 Y13.1631 F400.00
G1 X26.6478 Y13.2191 F400.00
G1 X26.6983 Y13.2776 F400.00
G1 X26.7459 Y13.3386 F400.00
G1 X26.7904 Y13.4018 F400.00
G1 X26.8317 Y13.4671 F400.00
G1 X26.8698 Y13.5344 F400.00
G1 X26.9046 Y13.6034 F400.00
G1 X26.9359 Y13.6741 F400.00
G1 X26.9637 Y13.7462 F400.00
G1 X26.9880 Y13.8196 F400.00
G1 X27.0086 Y13.8941 F400.00
G1 X27.0255 Y13.9695 F400.00
G1 X27.0388 Y14.0457 F400.00
G1 X27.0482 Y14.1224 F400.00
G1 X27.0539 Y14.1995 F400.00
G1 X27.0558 Y14.2777 F400.00
G0 Z3.0000 F400.00
G0 X26.2226 Y31.9618 F400.00
G1 F400.00
G1 Z-0.3000 F400.00
G1 F400.00
G1 X26.2637 Y31.9629 F400.00
G1 X26.3066 Y31.9660 F400.00
G1 X26.3492 Y31.9713 F400.00
G1 X26.3915 Y31.9786 F400.00
G1 X26.4334 Y31.9880 F400.00
G1 X26.4748 Y31.9995 F400.00
G1 X26.5156 Y32.0129 F400.00
G1 X26.5556 Y32.0284 F400.00
G1 X26.5949 Y32.0458 F400.00
G1 X26.6333 Y32.0651 F400.00
G1 X26.6706 Y32.0863 F400.00
G1 X26.7069 Y32.1093 F400.00
G1 X26.7420 Y32.1340 F400.00
G1 X26.7759 Y32.1604 F400.00
G1 X26.8084 Y32.1885 F400.00
G1 X26.8395 Y32.2181 F400.00
G1 X26.8691 Y32.2492 F400.00
G1 X26.8972 Y32.2817 F400.00
G1 X26.9236 Y32.3156 F400.00
G1 X26.9483 Y32.3507 F400.00
G1 X26.9713 Y32.3870 F400.00
G1 X26.9925 Y32.4243 F400.00
G1 X27.0118 Y32.4627 F400.00
G1 X27.0292 Y32.5020 F400.00
G1 X27.0447 Y32.5420 F400.00
G1 X27.0581 Y32.5828 F400.00
G1 X27.0696 Y32.6242 F400.00
G1 X27.0790 Y32.6661 F400.00
G1 X27.0863 Y32.7084 F400.00
G1 X27.0916 Y32.7510 F400.00
G1 X27.0947 Y32.7939 F400.00
G1 X27.0958 Y32.8377 F400.00
G1 X27.0947 Y32.8797 F400.00
G1 X27.0916 Y32.9226 F400.00
G1 X27.0863 Y32.9652 F400.00
G1 X27.0790 Y33.0075 F400.00
G1 X27.0696 Y33.0494 F400.00
G1 X27.0581 Y33.0908 F400.00
G1 X27.0447 Y33.1316 F400.00
G1 X27.0292 Y33.1716 F400.00
G1 X27.0118 Y33.2109 F400.00
G1 X26.9925 Y33.2493 F400.00
G1 X26.9713 Y33.2866 F400.00
G1 X26.9483 Y33.3229 F400.00
G1 X26.9236 Y33.3580 F400.00
G1 X26.8972 Y33.3919 F400.00
G1 X26.8691 Y33.4244 F400.00
G1 X26.8395 Y33.4555 F400.00
G1 X26.8084 Y33.4851 F400.00
G1 X26.7759 Y33.5132 F400.00
G1 X26.7420 Y33.5396 F400.00
G1 X26.7069 Y33.5643 F400.00
G1 X26.6706 Y33.5873 F400.00
G1 X26.6333 Y33.6085 F400.00
G1 X26.5949 Y33.6278 F400.00
G1 X26.5556 Y33.6452 F400.00
G1 X26.5156 Y33.6607 F400.00
G1 X26.4748 Y33.6741 F400.00
G1 X26.4334 Y33.6856 F400.00
G1 X26.3915 Y33.6950 F400.00
G1 X26.3492 Y33.7023 F400.00
G1 X26.3066 Y33.7076 F400.00
G1 X26.2637 Y33.7107 F400.00
G1 X26.2208 Y33.7118 F400.00
G1 X26.1779 Y33.7107 F400.00
G1 X26.1350 Y33.7076 F400.00
G1 X26.0924 Y33.7023 F400.00
G1 X26.0501 Y33.6950 F400.00
G1 X26.0082 Y33.6856 F400.00
G1 X25.9668 Y33.6741 F400.00
G1 X25.9260 Y33.6607 F400.00
G1 X25.8860 Y33.6452 F400.00
G1 X25.8467 Y33.6278 F400.00
G1 X25.8083 Y33.6085 F400.00
G1 X25.7710 Y33.5873 F400.00
G1 X25.7347 Y33.5643 F400.00
G1 X25.6996 Y33.5396 F400.00
G1 X25.6657 Y33.5132 F400.00
G1 X25.6332 Y33.4851 F400.00
G1 X25.6021 Y33.4555 F400.00
G1 X25.5725 Y33.4244 F400.00
G1 X25.5444 Y33.3919 F400.00
G1 X25.5180 Y33.3580 F400.00
G1 X25.4933 Y33.3229 F400.00
G1 X25.4703 Y33.2866 F400.00
G1 X25.4491 Y33.2493 F400.00
G1 X25.4298 Y33.2109 F400.00
G1 X25.4124 Y33.1716 F400.00
G1 X25.3969 Y33.1316 F400.00
G1 X25.3835 Y33.0908 F400.00
G1 X25.3720 Y33.0494 F400.00
G1 X25.3626 Y33.0075 F400.00
G1 X25.3553 Y32.9652 F400.00
G1 X25.3500 Y32.9226 F400.00
G1 X25.3469 Y32.8797 F400.00
G1 X25.3458 Y32.8368 F400.00
G1 X25.3469 Y32.7939 F400.00
G1 X25.3500 Y32.7510 F400.00
G1 X25.3553 Y32.7084 F400.00
G1 X25.3626 Y32.6661 F400.00
G1 X25.3720 Y32.6242 F400.00
G1 X25.3835 Y32.5828 F400.00
G1 X25.3969 Y32.5420 F400.00
G1 X25.4124 Y32.5020 F400.00
G1 X25.4298 Y32.4627 F400.00
G1 X25.4491 Y32.4243 F400.00
G1 X25.4703 Y32.3870 F400.00
G1 X25.4933 Y32.3507 F400.00
G1 X25.5180 Y32.3156 F400.00
G1 X25.5444 Y32.2817 F400.00
G1 X25.5725 Y32.2492 F400.00
G1 X25.6021 Y32.2181 F400.00
G1 X25.6332 Y32.1885 F400.00
G1 X25.6657 Y32.1604 F400.00
G1 X25.6996 Y32.1340 F400.00
G1 X25.7347 Y32.1093 F400.00
G1 X25.7710 Y32.0863 F400.00
G1 X25.8083 Y32.0651 F400.00
G1 X25.8467 Y32.0458 F400.00
G1 X25.8860 Y32.0284 F400.00
G1 X25.9260 Y32.0129 F400.00
G1 X25.9668 Y31.9995 F400.00
G1 X26.0082 Y31.9880 F400.00
G1 X26.0501 Y31.9786 F400.00
G1 X26.0924 Y31.9713 F400.00
G1 X26.1350 Y31.9660 F400.00
G1 X26.1779 Y31.9629 F400.00
G1 X26.2226 Y31.9618 F400.00
G0 Z3.0000 F400.00
G0 X28.7626 Y31.9618 F400.00
G1 F400.00
G1 Z-0.3000 F400.00
G1 F400.00
G1 X28.8037 Y31.9629 F400.00
G1 X28.8466 Y31.9660 F400.00
G1 X28.8892 Y31.9713 F400.00
G1 X28.9315 Y31.9786 F400.00
G1 X28.9734 Y31.9880 F400.00
G1 X29.0148 Y31.9995 F400.00
G1 X29.0556 Y32.0129 F400.00
G1 X29.0956 Y32.0284 F400.00
G1 X29.1349 Y32.0458 F400.00
G1 X29.1733 Y32.0651 F400.00
G1 X29.2106 Y32.0863 F400.00
G1 X29.2469 Y32.1093 F400.00
G1 X29.2820 Y32.1340 F400.00
G1 X29.3159 Y32.1604 F400.00
G1 X29.3484 Y32.1885 F400.00
G1 X29.3795 Y32.2181 F400.00
G1 X29.4091 Y32.2492 F400.00
G1 X29.4372 Y32.2817 F400.00
G1 X29.4636 Y32.3156 F400.00
G1 X29.4883 Y32.3507 F400.00
G1 X29.5113 Y32.3870 F400.00
G1 X29.5325 Y32.4243 F400.00
G1 X29.5518 Y32.4627 F400.00
G1 X29.5692 Y32.5020 F400.00
G1 X29.5847 Y32.5420 F400.00
G1 X29.5981 Y32.5828 F400.00
G1 X29.6096 Y32.6242 F400.00
G1 X29.6190 Y32.6661 F400.00
G1 X29.6263 Y32.7084 F400.00
G1 X29.6316 Y32.7510 F400.00
G1 X29.6347 Y32.7939 F400.00
G1 X29.6358 Y32.8377 F400.00
G1 X29.6347 Y32.8797 F400.00
G1 X29.6316 Y32.9226 F400.00
G1 X29.6263 Y32.9652 F400.00
G1 X29.6190 Y33.0075 F400.00
G1 X29.6096 Y33.0494 F400.00
G1 X29.5981 Y33.0908 F400.00
G1 X29.5847 Y33.1316 F400.00
G1 X29.5692 Y33.1716 F400.00
G1 X29.5518 Y33.2109 F400.00
G1 X29.5325 Y33.2493 F400.00
G1 X29.5113 Y33.2866 F400.00
G1 X29.4883 Y33.3229 F400.00
G1 X29.4636 Y33.3580 F400.00
G1 X29.4372 Y33.3919 F400.00
G1 X29.4091 Y33.4244 F400.00
G1 X29.3795 Y33.4555 F400.00
G1 X29.3484 Y33.4851 F400.00
G1 X29.3159 Y33.5132 F400.00
G1 X29.2820 Y33.5396 F400.00
G1 X29.2469 Y33.5643 F400.00
G1 X29.2106 Y33.5873 F400.00
G1 X29.1733 Y33.6085 F400.00
G1 X29.1349 Y33.6278 F400.00
G1 X29.0956 Y33.6452 F400.00
G1 X29.0556 Y33.6607 F400.00
G1 X29.0148 Y33.6741 F400.00
G1 X28.9734 Y33.6856 F400.00
G1 X28.9315 Y33.6950 F400.00
G1 X28.8892 Y33.7023 F400.00
G1 X28.8466 Y33.7076 F400.00
G1 X28.8037 Y33.7107 F400.00
G1 X28.7608 Y33.7118 F400.00
G1 X28.7179 Y33.7107 F400.00
G1 X28.6750 Y33.7076 F400.00
G1 X28.6324 Y33.7023 F400.00
G1 X28.5901 Y33.6950 F400.00
G1 X28.5482 Y33.6856 F400.00
G1 X28.5068 Y33.6741 F400.00
G1 X28.4660 Y33.6607 F400.00
G1 X28.4260 Y33.6452 F400.00
G1 X28.3867 Y33.6278 F400.00
G1 X28.3483 Y33.6085 F400.00
G1 X28.3110 Y33.5873 F400.00
G1 X28.2747 Y33.5643 F400.00
G1 X28.2396 Y33.5396 F400.00
G1 X28.2057 Y33.5132 F400.00
G1 X28.1732 Y33.4851 F400.00
G1 X28.1421 Y33.4555 F400.00
G1 X28.1125 Y33.4244 F400.00
G1 X28.0844 Y33.3919 F400.00
G1 X28.0580 Y33.3580 F400.00
G1 X28.0333 Y33.3229 F400.00
G1 X28.0103 Y33.2866 F400.00
G1 X27.9891 Y33.2493 F400.00
G1 X27.9698 Y33.2109 F400.00
G1 X27.9524 Y33.1716 F400.00
G1 X27.9369 Y33.1316 F400.00
G1 X27.9235 Y33.0908 F400.00
G1 X27.9120 Y33.0494 F400.00
G1 X27.9026 Y33.0075 F400.00
G1 X27.8953 Y32.9652 F400.00
G1 X27.8900 Y32.9226 F400.00
G1 X27.8869 Y32.8797 F400.00
G1 X27.8858 Y32.8368 F400.00
G1 X27.8869 Y32.7939 F400.00
G1 X27.8900 Y32.7510 F400.00
G1 X27.8953 Y32.7084 F400.00
G1 X27.9026 Y32.6661 F400.00
G1 X27.9120 Y32.6242 F400.00
G1 X27.9235 Y32.5828 F400.00
G1 X27.9369 Y32.5420 F400.00
G1 X27.9524 Y32.5020 F400.00
G1 X27.9698 Y32.4627 F400.00
G1 X27.9891 Y32.4243 F400.00
G1 X28.0103 Y32.3870 F400.00
G1 X28.0333 Y32.3507 F400.00
G1 X28.0580 Y32.3156 F400.00
G1 X28.0844 Y32.2817 F400.00
G1 X28.1125 Y32.2492 F400.00
G1 X28.1421 Y32.2181 F400.00
G1 X28.1732 Y32.1885 F400.00
G1 X28.2057 Y32.1604 F400.00
G1 X28.2396 Y32.1340 F400.00
G1 X28.2747 Y32.1093 F400.00
G1 X28.3110 Y32.0863 F400.00
G1 X28.3483 Y32.0651 F400.00
G1 X28.3867 Y32.0458 F400.00
G1 X28.4260 Y32.0284 F400.00
G1 X28.4660 Y32.0129 F400.00
G1 X28.5068 Y31.9995 F400.00
G1 X28.5482 Y31.9880 F400.00
G1 X28.5901 Y31.9786 F400.00
G1 X28.6324 Y31.9713 F400.00
G1 X28.6750 Y31.9660 F400.00
G1 X28.7179 Y31.9629 F400.00
G1 X28.7626 Y31.9618 F400.00
G0 Z3.0000 F400.00
G0 X30.7256 Y33.4959 F400.00
G1 F400.00
G1 Z-0.3000 F400.00
G1 F400.00
G1 X30.7118 Y33.4839 F400.00
G1 X30.6808 Y33.4542 F400.00
G1 X30.6525 Y33.4244 F400.00
G1 X30.6244 Y33.3919 F400.00
G1 X30.5980 Y33.3580 F400.00
G1 X30.5743 Y33.3244 F400.00
G1 X30.5494 Y33.2850 F400.00
G1 X30.5291 Y33.2493 F400.00
G1 X30.5098 Y33.2109 F400.00
G1 X30.4924 Y33.1716 F400.00
G1 X30.4776 Y33.1333 F400.00
G1 X30.4630 Y33.0890 F400.00
G1 X30.4520 Y33.0494 F400.00
G1 X30.4426 Y33.0075 F400.00
G1 X30.4353 Y32.9652 F400.00
G1 X30.4302 Y32.9244 F400.00
G1 X30.4268 Y32.8779 F400.00
G1 X30.4258 Y32.8368 F400.00
G1 X30.4269 Y32.7939 F400.00
G1 X30.4300 Y32.7510 F400.00
G1 X30.4350 Y32.7102 F400.00
G1 X30.4430 Y32.6643 F400.00
G1 X30.4520 Y32.6242 F400.00
G1 X30.4635 Y32.5828 F400.00
G1 X30.4776 Y32.5403 F400.00
G1 X30.4924 Y32.5020 F400.00
G1 X30.5098 Y32.4627 F400.00
G1 X30.5291 Y32.4243 F400.00
G1 X30.5494 Y32.3886 F400.00
G1 X30.5743 Y32.3492 F400.00
G1 X30.5980 Y32.3156 F400.00
G1 X30.6244 Y32.2817 F400.00
G1 X30.6525 Y32.2492 F400.00
G1 X30.6808 Y32.2194 F400.00
G1 X30.7146 Y32.1872 F400.00
G1 X30.7457 Y32.1604 F400.00
G1 X30.7796 Y32.1340 F400.00
G1 X30.8147 Y32.1093 F400.00
G1 X30.8494 Y32.0873 F400.00
G1 X30.8883 Y32.0651 F400.00
G1 X30.9267 Y32.0458 F400.00
G1 X30.9643 Y32.0291 F400.00
G1 X31.0060 Y32.0129 F400.00
G1 X31.0468 Y31.9995 F400.00
G1 X31.0864 Y31.9885 F400.00
G1 X31.1319 Y31.9783 F400.00
G1 X31.1724 Y31.9713 F400.00
G1 X31.2150 Y31.9660 F400.00
G1 X31.2579 Y31.9629 F400.00
G1 X31.2990 Y31.9618 F400.00
G1 X31.3456 Y31.9630 F400.00
G1 X31.3866 Y31.9660 F400.00
G1 X31.4292 Y31.9713 F400.00
G1 X31.4733 Y31.9790 F400.00
G1 X31.5134 Y31.9880 F400.00
G1 X31.5548 Y31.9995 F400.00
G1 X31.5956 Y32.0129 F400.00
G1 X31.6339 Y32.0277 F400.00
G1 X31.6766 Y32.0466 F400.00
G1 X31.7133 Y32.0651 F400.00
G1 X31.7506 Y32.0863 F400.00
G1 X31.7869 Y32.1093 F400.00
G1 X31.8205 Y32.1329 F400.00
G1 X31.8573 Y32.1616 F400.00
G1 X31.8884 Y32.1885 F400.00
G1 X31.9182 Y32.2168 F400.00
G1 X31.9504 Y32.2506 F400.00
G1 X31.9772 Y32.2817 F400.00
G1 X32.0036 Y32.3156 F400.00
G1 X32.0283 Y32.3507 F400.00
G1 X32.0503 Y32.3854 F400.00
G1 X32.0725 Y32.4243 F400.00
G1 X32.0918 Y32.4627 F400.00
G1 X32.1085 Y32.5003 F400.00
G1 X32.1247 Y32.5420 F400.00
G1 X32.1381 Y32.5828 F400.00
G1 X32.1491 Y32.6224 F400.00
G1 X32.1593 Y32.6679 F400.00
G1 X32.1663 Y32.7084 F400.00
G1 X32.1714 Y32.7492 F400.00
G1 X32.1747 Y32.7939 F400.00
G1 X32.1758 Y32.8386 F400.00
G1 X32.1747 Y32.8797 F400.00
G1 X32.1717 Y32.9207 F400.00
G1 X32.1663 Y32.9652 F400.00
G1 X32.1586 Y33.0093 F400.00
G1 X32.1496 Y33.0494 F400.00
G1 X32.1386 Y33.0890 F400.00
G1 X32.1252 Y33.1298 F400.00
G1 X32.1092 Y33.1716 F400.00
G1 X32.0910 Y33.2126 F400.00
G1 X32.0725 Y33.2493 F400.00
G1 X32.0522 Y33.2850 F400.00
G1 X32.0283 Y33.3229 F400.00
G1 X32.0025 Y33.3595 F400.00
G1 X31.9772 Y33.3919 F400.00
G1 X31.9504 Y33.4230 F400.00
G1 X31.9195 Y33.4555 F400.00
G1 X31.8884 Y33.4851 F400.00
G1 X31.8760 Y33.4959 F400.00
G1 X31.8760 Y34.4550 F400.00
G1 X31.9488 Y34.4329 F400.00
G1 X32.2489 Y34.2749 F400.00
G1 X32.2809 Y34.2497 F400.00
G1 X32.3000 Y34.2364 F400.00
G1 X32.3181 Y34.2251 F400.00
G1 X32.3415 Y34.2120 F400.00
G1 X32.3607 Y34.2025 F400.00
G1 X32.3803 Y34.1939 F400.00
G1 X32.4037 Y34.1849 F400.00
G1 X32.4258 Y34.1777 F400.00
G1 X32.4482 Y34.1716 F400.00
G1 X32.4708 Y34.1666 F400.00
G1 X32.4937 Y34.1628 F400.00
G1 X32.5168 Y34.1600 F400.00
G1 X32.5399 Y34.1584 F400.00
G1 X32.5632 Y34.1579 F400.00
G1 X32.5864 Y34.1585 F400.00
G1 X32.6095 Y34.1603 F400.00
G1 X32.6326 Y34.1632 F400.00
G1 X32.6572 Y34.1676 F400.00
G1 X32.6798 Y34.1728 F400.00
G1 X32.7004 Y34.1786 F400.00
G1 X32.7207 Y34.1853 F400.00
G1 X32.7441 Y34.1943 F400.00
G1 X32.7637 Y34.2030 F400.00
G1 X32.7877 Y34.2151 F400.00
G1 X32.8063 Y34.2256 F400.00
G1 X32.8259 Y34.2381 F400.00
G1 X32.8463 Y34.2526 F400.00
G1 X32.8779 Y34.2779 F400.00
G1 X33.1776 Y34.4380 F400.00
G1 X33.5027 Y34.5366 F400.00
