;Marlin(Repetier) G-CODE GENERATED BY FLATCAM v8.96 - www.flatcam.org - Version Date:    2019/08/23

;Name: f_comp-PTH.drl_cnc
;Type: G-code from Excellon
;Units: MM

;Created on Thursday, 03 October 2019 at 17:21

;Feedrate: 400.0 mm/min
;Feedrate rapids 400.0 mm/min

;Z_Cut: -2.0 mm
;Z_Move: 3.0 mm
;Z Toolchange: 12.7 mm
;X,Y Toolchange: 0.0000, 0.0000 mm
;Z Start: None mm
;Z End: 12.7 mm
;Steps per circle: 128
;Postprocessor Excellon: marlin
;X range:  -71.3808 ...  -21.9808  mm
;Y range:   12.7768 ...   63.5768  mm

;Spindle Speed: None RPM


G21
G90

G1 F400.00
G0 Z3.0000 F400.00

M3
G0 X-42.6708 Y58.7068 F400.00
G1 Z-2.0000 F400.00
G1 Z0 G1 F400.00
G0 Z3.0000 F400.00
G0 X-45.2108 Y58.7068 F400.00
G1 Z-2.0000 F400.00
G1 Z0 G1 F400.00
G0 Z3.0000 F400.00
G0 X-47.7508 Y58.7068 F400.00
G1 Z-2.0000 F400.00
G1 Z0 G1 F400.00
G0 Z3.0000 F400.00
G0 X-49.0408 Y63.0768 F400.00
G1 Z-2.0000 F400.00
G1 Z0 G1 F400.00
G0 Z3.0000 F400.00
G0 X-51.5808 Y63.0768 F400.00
G1 Z-2.0000 F400.00
G1 Z0 G1 F400.00
G0 Z3.0000 F400.00
G0 X-50.2908 Y58.7068 F400.00
G1 Z-2.0000 F400.00
G1 Z0 G1 F400.00
G0 Z3.0000 F400.00
G0 X-49.0808 Y48.0768 F400.00
G1 Z-2.0000 F400.00
G1 Z0 G1 F400.00
G0 Z3.0000 F400.00
G0 X-51.6208 Y48.0768 F400.00
G1 Z-2.0000 F400.00
G1 Z0 G1 F400.00
G0 Z3.0000 F400.00
G0 X-54.1608 Y48.0768 F400.00
G1 Z-2.0000 F400.00
G1 Z0 G1 F400.00
G0 Z3.0000 F400.00
G0 X-56.7008 Y48.0768 F400.00
G1 Z-2.0000 F400.00
G1 Z0 G1 F400.00
G0 Z3.0000 F400.00
G0 X-59.2408 Y48.0768 F400.00
G1 Z-2.0000 F400.00
G1 Z0 G1 F400.00
G0 Z3.0000 F400.00
G0 X-61.7808 Y48.0768 F400.00
G1 Z-2.0000 F400.00
G1 Z0 G1 F400.00
G0 Z3.0000 F400.00
G0 X-61.7808 Y32.8368 F400.00
G1 Z-2.0000 F400.00
G1 Z0 G1 F400.00
G0 Z3.0000 F400.00
G0 X-59.2408 Y32.8368 F400.00
G1 Z-2.0000 F400.00
G1 Z0 G1 F400.00
G0 Z3.0000 F400.00
G0 X-56.7008 Y32.8368 F400.00
G1 Z-2.0000 F400.00
G1 Z0 G1 F400.00
G0 Z3.0000 F400.00
G0 X-54.1608 Y32.8368 F400.00
G1 Z-2.0000 F400.00
G1 Z0 G1 F400.00
G0 Z3.0000 F400.00
G0 X-51.6208 Y32.8368 F400.00
G1 Z-2.0000 F400.00
G1 Z0 G1 F400.00
G0 Z3.0000 F400.00
G0 X-49.0808 Y32.8368 F400.00
G1 Z-2.0000 F400.00
G1 Z0 G1 F400.00
G0 Z3.0000 F400.00
G0 X-46.5408 Y32.8368 F400.00
G1 Z-2.0000 F400.00
G1 Z0 G1 F400.00
G0 Z3.0000 F400.00
G0 X-44.0008 Y32.8368 F400.00
G1 Z-2.0000 F400.00
G1 Z0 G1 F400.00
G0 Z3.0000 F400.00
G0 X-41.4608 Y32.8368 F400.00
G1 Z-2.0000 F400.00
G1 Z0 G1 F400.00
G0 Z3.0000 F400.00
G0 X-38.9208 Y32.8368 F400.00
G1 Z-2.0000 F400.00
G1 Z0 G1 F400.00
G0 Z3.0000 F400.00
G0 X-36.3808 Y32.8368 F400.00
G1 Z-2.0000 F400.00
G1 Z0 G1 F400.00
G0 Z3.0000 F400.00
G0 X-33.8408 Y32.8368 F400.00
G1 Z-2.0000 F400.00
G1 Z0 G1 F400.00
G0 Z3.0000 F400.00
G0 X-31.3008 Y32.8368 F400.00
G1 Z-2.0000 F400.00
G1 Z0 G1 F400.00
G0 Z3.0000 F400.00
G0 X-28.7608 Y32.8368 F400.00
G1 Z-2.0000 F400.00
G1 Z0 G1 F400.00
G0 Z3.0000 F400.00
G0 X-26.2208 Y32.8368 F400.00
G1 Z-2.0000 F400.00
G1 Z0 G1 F400.00
G0 Z3.0000 F400.00
G0 X-26.2208 Y48.0768 F400.00
G1 Z-2.0000 F400.00
G1 Z0 G1 F400.00
G0 Z3.0000 F400.00
G0 X-28.7608 Y48.0768 F400.00
G1 Z-2.0000 F400.00
G1 Z0 G1 F400.00
G0 Z3.0000 F400.00
G0 X-31.3008 Y48.0768 F400.00
G1 Z-2.0000 F400.00
G1 Z0 G1 F400.00
G0 Z3.0000 F400.00
G0 X-33.8408 Y48.0768 F400.00
G1 Z-2.0000 F400.00
G1 Z0 G1 F400.00
G0 Z3.0000 F400.00
G0 X-36.3808 Y48.0768 F400.00
G1 Z-2.0000 F400.00
G1 Z0 G1 F400.00
G0 Z3.0000 F400.00
G0 X-38.9208 Y48.0768 F400.00
G1 Z-2.0000 F400.00
G1 Z0 G1 F400.00
G0 Z3.0000 F400.00
G0 X-41.4608 Y48.0768 F400.00
G1 Z-2.0000 F400.00
G1 Z0 G1 F400.00
G0 Z3.0000 F400.00
G0 X-44.0008 Y48.0768 F400.00
G1 Z-2.0000 F400.00
G1 Z0 G1 F400.00
G0 Z3.0000 F400.00
G0 X-46.5408 Y48.0768 F400.00
G1 Z-2.0000 F400.00
G1 Z0 G1 F400.00
G0 Z3.0000 F400.00
M3
G0 X-38.8808 Y63.0768 F400.00
G1 Z-2.0000 F400.00
G1 Z0 G1 F400.00
G0 Z3.0000 F400.00
G0 X-41.4208 Y63.0768 F400.00
G1 Z-2.0000 F400.00
G1 Z0 G1 F400.00
G0 Z3.0000 F400.00
G0 X-43.9608 Y63.0768 F400.00
G1 Z-2.0000 F400.00
G1 Z0 G1 F400.00
G0 Z3.0000 F400.00
G0 X-46.5008 Y63.0768 F400.00
G1 Z-2.0000 F400.00
G1 Z0 G1 F400.00
G0 Z3.0000 F400.00
G0 X-70.7808 Y49.5768 F400.00
G1 Z-2.0000 F400.00
G1 Z0 G1 F400.00
G0 Z3.0000 F400.00
G0 X-70.7808 Y47.0368 F400.00
G1 Z-2.0000 F400.00
G1 Z0 G1 F400.00
G0 Z3.0000 F400.00
G0 X-70.7808 Y44.4968 F400.00
G1 Z-2.0000 F400.00
G1 Z0 G1 F400.00
G0 Z3.0000 F400.00
G0 X-70.7808 Y41.9568 F400.00
G1 Z-2.0000 F400.00
G1 Z0 G1 F400.00
G0 Z3.0000 F400.00
G0 X-70.7808 Y39.4168 F400.00
G1 Z-2.0000 F400.00
G1 Z0 G1 F400.00
G0 Z3.0000 F400.00
G0 X-70.7808 Y36.8768 F400.00
G1 Z-2.0000 F400.00
G1 Z0 G1 F400.00
G0 Z3.0000 F400.00
G0 X-70.8808 Y32.8768 F400.00
G1 Z-2.0000 F400.00
G1 Z0 G1 F400.00
G0 Z3.0000 F400.00
G0 X-70.8808 Y30.3368 F400.00
G1 Z-2.0000 F400.00
G1 Z0 G1 F400.00
G0 Z3.0000 F400.00
G0 X-70.8808 Y27.7968 F400.00
G1 Z-2.0000 F400.00
G1 Z0 G1 F400.00
G0 Z3.0000 F400.00
G0 X-70.8808 Y25.2568 F400.00
G1 Z-2.0000 F400.00
G1 Z0 G1 F400.00
G0 Z3.0000 F400.00
G0 X-70.8808 Y22.7168 F400.00
G1 Z-2.0000 F400.00
G1 Z0 G1 F400.00
G0 Z3.0000 F400.00
G0 X-70.8808 Y20.1768 F400.00
G1 Z-2.0000 F400.00
G1 Z0 G1 F400.00
G0 Z3.0000 F400.00
G0 X-30.0808 Y24.3768 F400.00
G1 Z-2.0000 F400.00
G1 Z0 G1 F400.00
G0 Z3.0000 F400.00
G0 X-22.4808 Y24.3768 F400.00
G1 Z-2.0000 F400.00
G1 Z0 G1 F400.00
G0 Z3.0000 F400.00
M3
G0 X-66.0808 Y14.2768 F400.00
G1 Z-2.0000 F400.00
G1 Z0 G1 F400.00
G0 Z3.0000 F400.00
G0 X-66.0808 Y54.8768 F400.00
G1 Z-2.0000 F400.00
G1 Z0 G1 F400.00
G0 Z3.0000 F400.00
G0 X-25.4808 Y54.8768 F400.00
G1 Z-2.0000 F400.00
G1 Z0 G1 F400.00
G0 Z3.0000 F400.00
G0 X-25.4808 Y14.2768 F400.00
G1 Z-2.0000 F400.00
G1 Z0 G1 F400.00
G0 Z3.0000 F400.00
M5
G0 Z12.70 F400.00
G0 X0.0 Y0.0 F400.00

M02